/* XPM */
static char *_000[] = {
/* columns rows colors chars-per-pixel */
"128 128 236 2 ",
"   c None",
".  c #965E2C",
"X  c #935F32",
"o  c #8F5F36",
"O  c #9A6435",
"+  c #9A6739",
"@  c #9D6A3C",
"#  c #956237",
"$  c #99612F",
"%  c #A36D3D",
"&  c #A76B36",
"*  c #A5713F",
"=  c #AB713C",
"-  c #9D6D44",
";  c #9C6F48",
":  c #9D724C",
">  c #9F764B",
",  c #9D7754",
"<  c #A26E42",
"1  c #AA694A",
"2  c #A57245",
"3  c #AA7544",
"4  c #AD7847",
"5  c #A4744B",
"6  c #AA7649",
"7  c #A5784E",
"8  c #AB7A4D",
"9  c #B27A46",
"0  c #B37C4B",
"q  c #B97F4B",
"w  c #B97B44",
"e  c #A57A53",
"r  c #AB7D53",
"t  c #A67D59",
"y  c #AA7E5A",
"u  c #A47754",
"i  c #B37E52",
"p  c #BA795A",
"a  c #B86556",
"s  c #B87B64",
"d  c #AA7A60",
"f  c #CC5C5C",
"g  c #D45C5C",
"h  c #DA5657",
"j  c #E15E5E",
"k  c #C9655A",
"l  c #CB6B5C",
"z  c #D85D62",
"x  c #CC6664",
"c  c #D36363",
"v  c #DC6363",
"b  c #D46B6B",
"n  c #DB6D6D",
"m  c #D36C62",
"M  c #C87D73",
"N  c #DB7474",
"B  c #DC7B7B",
"V  c #D57B76",
"C  c #D0746C",
"Z  c #E36464",
"A  c #E36B6C",
"S  c #EB6A6B",
"D  c #E86768",
"F  c #E56971",
"G  c #E37373",
"H  c #EB7474",
"J  c #E37B7B",
"K  c #EC7B7B",
"L  c #F47374",
"P  c #F47C7C",
"I  c #FF7F7F",
"U  c #FB7D7D",
"Y  c #F5767B",
"T  c #EF6D70",
"R  c #BB814B",
"E  c #B6814F",
"W  c #AD8354",
"Q  c #AD815B",
"!  c #A98556",
"~  c #B38155",
"^  c #BB8554",
"/  c #B3845B",
"(  c #B9865B",
")  c #B6895B",
"_  c #BC8A5C",
"`  c #BA8B55",
"'  c #BD945C",
"]  c #A6834F",
"[  c #AD8562",
"{  c #AE8A6B",
"}  c #AA8666",
"|  c #B18661",
" . c #B38A65",
".. c #BC8C62",
"X. c #B38D6A",
"o. c #BC8066",
"O. c #B6916E",
"+. c #BC916B",
"@. c #AE9174",
"#. c #BB9573",
"$. c #BD9B7C",
"%. c #B59376",
"&. c #AD8C71",
"*. c #C3844A",
"=. c #CD894C",
"-. c #C9864A",
";. c #DB924E",
":. c #C38A56",
">. c #CA8C53",
",. c #C38D5C",
"<. c #CB8F5A",
"1. c #C18653",
"2. c #D18E53",
"3. c #C5935E",
"4. c #CB925D",
"5. c #D2945C",
"6. c #D9975A",
"7. c #D78E4D",
"8. c #E3954F",
"9. c #EA9A51",
"0. c #EEA258",
"q. c #FBA556",
"w. c #FEAB5B",
"e. c #F6A356",
"r. c #C18E61",
"t. c #C4886B",
"y. c #C59163",
"u. c #CB9563",
"i. c #C49A61",
"p. c #CD9A64",
"a. c #CB956A",
"s. c #CD9969",
"d. c #C4956C",
"f. c #D29662",
"g. c #D39A65",
"h. c #DA9D64",
"j. c #D49C6B",
"k. c #D99E6A",
"l. c #C58372",
"z. c #CA8175",
"x. c #D38477",
"c. c #C29D7C",
"v. c #C39A76",
"b. c #DD997D",
"n. c #E29D61",
"m. c #FF807F",
"M. c #FF807F",
"N. c #F0807E",
"B. c #D5A26C",
"V. c #DCA26D",
"C. c #DDAA6E",
"Z. c #DBA265",
"A. c #CCA670",
"S. c #DCA571",
"D. c #DCA773",
"F. c #D4AA6C",
"G. c #E5A266",
"H. c #E2A36C",
"J. c #EAA86B",
"K. c #FFAD64",
"L. c #FFAF6A",
"P. c #FEB26C",
"I. c #E4A672",
"U. c #E5A973",
"Y. c #EBAC75",
"T. c #E4AE79",
"R. c #EDAE78",
"E. c #F1AE75",
"W. c #F0AF79",
"Q. c #E5B376",
"!. c #EAB276",
"~. c #E6B179",
"^. c #EDB27A",
"/. c #ECB97D",
"(. c #E7BC7B",
"). c #F3B276",
"_. c #FFB574",
"`. c #F3B37B",
"'. c #FAB77D",
"]. c #F4B97D",
"[. c #FDBA7F",
"{. c #FBB976",
"}. c #F8C47D",
"|. c #DA7E87",
" X c #E77D86",
".X c #FE7F82",
"XX c #BD9E82",
"oX c #BBA28A",
"OX c #DC8383",
"+X c #D98987",
"@X c #DE9595",
"#X c #DE9A9A",
"$X c #C19F82",
"%X c #EB8185",
"&X c #E78285",
"*X c #F38182",
"=X c #F98181",
"-X c #FF8180",
";X c #FF8282",
":X c #FD8181",
">X c #FF8584",
",X c #FE8686",
"<X c #FE8183",
"1X c #F68289",
"2X c #FD8289",
"3X c #E09791",
"4X c #C3A285",
"5X c #C2A68B",
"6X c #C8A98D",
"7X c #C4AA93",
"8X c #C9AD94",
"9X c #C6AE99",
"0X c #CCB39C",
"qX c #C8B09A",
"wX c #D3B69E",
"eX c #F5BC81",
"rX c #FFBC81",
"tX c #FABB85",
"yX c #EEAE85",
"uX c #CAB7A4",
"iX c #D2B9A3",
"pX c #D2BBA8",
"aX c #E2A6A6",
"sX c #F6C183",
"dX c #FEC285",
"fX c #FEC883",
"gX c #FEC689",
"hX c #FECA8B",
"jX c #F7CA8C",
"kX c #F2C888",
"lX c #D6C1AE",
"zX c #DBC7B6",
"xX c #E2CEBE",
"cX c #E4D6C8",
"vX c #ECDFD3",
"bX c #F0ECE8",
/* pixels */
"                                                                                                                                                                                                                                                                ",
"                                                                                                                                                                                                                                                                ",
"                                                                                                                                            B B B B N N N n n                                                                                                   ",
"                                                                                                                                      B B V V V B B B J J H G n b x b                                                                                           ",
"                                                                                                                                  B B B B V B B J J K K P P H n b b n A j                                                                                       ",
"                                                                                                                                c N B B B J J J K K *X=X;XP H n b n G L S D                                                                                     ",
"                                                                                                                              f c n J J K K K P P =X>X>X>XP G b b G Y U L S n OX                                                                                ",
"                                                                                                                            x f c A K *X*XP =X=X;X;X>X>X=XK N n N K =X;XU S v N #X                                                                              ",
"                                                                                                                            x c b H P =X=X;X;X;X;X>X;X=XK G G G K =X>X;XI T Z b +XaX                                                                            ",
"                                                                                                                          N c c A Y =X>X>X;X;X;X;X;X;XP G n G K P =X>X>X;XL Z v B #X                                                                            ",
"                                                                                                                          N v v H =X>X>X>X;X;X;X;X;X;XY G n G P =X>X>X>X>XY D h N +X#X                                                                          ",
"                                                                                                                        N G A S Y >X>X;X;X;X;X;X;X;X;XY G G H U ;X>X;X>X>XU D j v N +X                                                                          ",
"                                                                                                                        n H H L =X>X>X;X;XM.M.;X;X;X;XU Y Y P M.;X;X;X>X;XU S h g b B @X                                                                        ",
"                                                                                                                      g v S Y U >X>X;XI I I M.;X;X;X;X;XU U ;X;X;X;X;X>X;XU D h h c B @X                                                                        ",
"                                                                                                                      k v S P >X>X;X;XI I I ;X;X;X;X;X;X;X;X;X;X;X;X;X>X;XP S h h g V @X                                                                        ",
"                                                                                                                      x v S Y ;X>X;X;X;XI I ;X;X;XM.M.M.;X;X;X;X;X;X;X>X;XU S h h g N @XaX                                                                      ",
"                                                                                                                      C b A L I ;X>X<X;X.XI I ;XM.M.I M.;X;X;X;XM.;X;X;X;XU L D h g b +XaX                                                                      ",
"                                                                                                                      M b A T Y <X2X2X<X.XI ;X;XM.M.I .X;X;XM.M.M.M.M.;X;XM.P T v g c B #X                                                                      ",
"                                                                                                                      o.x c F Y 1X2X2X.X.XU ;X;X;X;X;X;X;X;XM.M.M.M.M.M.;X;XM.H Z g c V @X                                                                      ",
"                                                                                                                    O.y a a x B &X%X XK K K *X=X<X<X<X<X<X;X;X;X;X;X;X;X;X;X;XY A z z N                                                                         ",
"                                                                                                                    [ 5 1 1 s z.x.V V C V B &X%X1X=X1X1X1X=X<X<X<X.X.X;X<X<X<XY F z z n                                                                         ",
"                                                                                                                  X.e < 2 i ..d.l.s s s t.x.OX X X X XOX&X%X1X1X2X.X.X<X2X2X2XY S z g b                                                                         ",
"                                                                                                                  | 2 3 ` s.A.A.d...~ ) r.x.+X|.|.B M M l.x.OX&X X*XN.*X1X1X1XY A g k                                                                           ",
"                                                                                                                O.r 3 q B.(.kXQ.B.p.3.i.B.D.3X+X+Xz.s d y s M M V V x.x.OX&XJ G m l p                                                                           ",
"                                                                                                                | 8 4 >.!.jXjXsX!.U.C.Q./.eXyXyXb.d./ e , u d s s ( o.o.l.z.M C l p p /                                                                         ",
"                                                                                                              O.r 3 R k.eXhXhXdX[.].].sXsXgXgXtX^.D.i.) ] e e y ~ W ! Q [ s s ( :._ ) W                                                                         ",
"                                                                                                              X.6 3 <.T.dXhXgXdXrXrXdXdXdXdXfXfXsX(.C.p.' _ ) ..' ' ! ! ! Q _ y.u.3.` 4                                                                         ",
"                                                                                                            4X%.e 0 g./.dXdXrXrXrXrXdXdXrXdXdXfXfX}.}.!.D.B.j.V.C.B.i._ ) _ i.B.V.g.` 3 %                                                                       ",
"                                                                                                              %.| ( B.].dXdXrXrXrXrXrXrXrXrXrXdXfXfXfXdX].`.^.`.`.!.V.g.u.g.C.!.U.h.^ 4 6                                                                       ",
"                                                                                                              %.X...j.!.dXdXdXrXrXrXrXrXrXrX[.[.rXdXdXdXdXrXrXrX'.].Y.I.I.R.`.].Y.f.R 8 Q                                                                       ",
"                                                                                                            %.{ [ ) p.T.tXdXdXrXrXrXrXrXrXrX[.[.rXrXrXdXrXrXrX'.).R.U.R.).'.rX`.V.:.0 r X.                                                                      ",
"                                                                                                            [ t e ~ g.!.tXdXdXrXrXrXrXrXrXrX[.[.rX[.rXrXrXrX'.).U.I.U.R.`.rXrXR.u.i e Q %.                                                                      ",
"                                                                                                            5 ; 6 ,.V.].dXdXrXrX[.rXrXrXrXrXrXrXrXrXrXrXrXrX].R.I.H.I.R.`.'.).V.:.8 r X.                                                                        ",
"                                                                                                            O @ 0 p.!.dXdXrXrXrX[.rXrXrXrXrXrXrXrXrXrXrXrXrX].^.U.I.I.Y.).).U.u.~ r | %.                                                                        ",
"                                                                                                            . % :.D.sXhXdXrXrX[.rXrXrXrXrXrXrXrXrXrXrXrXrXrX].^.U.I.U.R.).R.k._ 8 r O.c.                                                                        ",
"                                                                                                            $ 4 g./.gXhXdXrXrX[.rXrXrXrXrXrXrXrXrXrXrXrXrXtX].R.U.U.U.).).I.4.0 3 r #.4X                                                                        ",
"                                                                                                          . % ^ U.dXgXdXrX[.[.rXrXrXrXrXrXrXrXrXrXrXrXrXrX'.).U.U.U.R.`.^.V.^ 2 % r #.4X                                                                        ",
"                                                                                                        O O 4 u.^.dXdXrXrX[.[.rXrXrXrXrXrXrXrXrXrXrXrXrXrX'.R.U.I.U.R.).T.j.i % % r #.                                                                          ",
"                                                                                                        + % ^ V.eXdXdXrXrXrXrXrXrXrXrXrXrXrXrXrXrXrXrXrXrX'.^.U.I.U.U.T.D.y.r < 2 / v.                                                                          ",
"                                                                                                        @ 3 <.U.tXdXdXrXrXrXrXrXrXrXrXrXrXrXrXrXrXrXrXrXrX'.).Y.U.U.U.I.j._ 8 5 e ..c.                                                                          ",
"                                                                                                        - 6 4.T.tXdXdXrXrXrXrXrXrXrXrXrXrXrXrXrXrXrXrXrXrX].^.Y.Y.R.Y.I.u.~ 7 7 Q +.                                                                            ",
"                                                                                                        : 6 ,.I.].dXdXrXrXrXrXrXrXrXrXrXrXrXrXrXrXrXrXrXtX`.R.U.R.).R.I.u.~ 5 5 r ..                                                                            ",
"                                                                                                        : 7 ,.V.].dXdXrXrXrXrXrXrXrXrXrXrXrXrXrXrXrXrXrX].^.U.U.U.).).U.j.( 6 2 6 ~                                                                             ",
"                                                                                                      : : 8 ,.S.].dXrXrXrXrXrXrXrXrXrXrXrXrXrXrXrXrXrX'.`.Y.U.U.Y.).`.U.j._ 8 2 % %                                                                             ",
"                                                                                                      - 5 ~ p.!.dXdXrXrXrXrXrXrXrXrXrXrXrXrXrXrXrXrXrX'.^.U.I.U.R.).).I.s._ r 2 % &                                                                             ",
"                                                                                                    + - 6 ,.D.eXgXdXrXrX[.rXrXrXrXrXrXrXrXrXrXrXrXrX[.`.Y.I.I.U.R.).Y.V.y.~ 8 6 2 %                                                                             ",
"                                                                                                    O 2 ^ j./.dXgXdXrXrXrXrXrXrXrXrXrXrXrXrXrXrXrXrX'.).U.I.I.U.R.R.I.s.) 8 6 r ~                                                                               ",
"                                                                                                  . O 6 ,.U.dXhXdXrXrXrXrXrXrXrXrXrXrXrXrXrXrXrXrXrX].R.U.I.I.U.R.U.j.r.r 2 6 / $.                                                                              ",
"                                                                                                  O O 0 k.].gXgXdXrXrXrXrXrXrXrXrXrXrXrXrXrXrXrXrXtX).Y.I.I.U.R.R.U.j.( 6 < 8 #.0X                                                                              ",
"                                                                                                r @ < ,.U.dXgXdXrXrXrXrXrXrXrXrXrXrXrXrXrXrXrXrXrX'.^.U.I.U.Y.^.^.T.S.,.9 3 Q $XlX                                                                              ",
"                                                                                              8XQ < 0 g.^.dXdXrXrXrXrXrXrXrXrXrXrXrXrXrXrXrXrXrXtX`.Y.U.I.U.Y.).`.`.U.5.*.0 ..7XzX                                                                              ",
"                                                                                            zX4Xe 2 ^ S.eXdXdXrXrXrXrXrXrXrXrXrXrXrXrXrXrXrXrXrX].).Y.U.I.U.Y.).].].Y.6.>.:.c.0X                                                                                ",
"                                                                                            0XX.5 6 u.^.dXdXdXrXrXrXrXrXrXrXrXrXrXrXrXrXrXrXrXtX).Y.U.U.I.U.Y.).`.R.H.5.>.a.6XlX                                                                                ",
"                                                                                          zXXXe < E V.eXgXdXrXrXrXrXrXrXrXrXrXrXrXrXrXrXrXrXrX].R.U.I.I.U.U.R.).R.H.<.*._ v.wX                                                                                  ",
"                                                                                        vXiXX.5 4 4.!.gXhXdXrX[.[.rXrXrXrXrXrXrXrXrXrXrXrXrXtX`.U.I.I.U.U.R.).R.I.4.q 6 / 4XlX                                                                                  ",
"                                                                                        zX5Xt 2 ^ V.eXhXgXrXrX[.[.rXrXrXrXrXrXrXrXrXrXrXrXrX'.W.U.I.I.U.Y.).).R.k.^ 3 2 X.qX                                                                                    ",
"                                                                                        6XX.5 3 4.!.gXhXdXrX[.[.rXrXrXrXrXrXrXrXrXrXrXdXdXrX].R.I.I.I.U.R.).).U.u.0 % e XXlX                                                                                    ",
"                                                                                        | e 2 i B.eXhXgXrXrX[.[.rXrXrXrXrXrXrXrXrXrXrXrXrX'.).U.I.I.U.U.R.).^.V.,.3 2 X.0X                                                                                      ",
"                                                                                        < 2 8 ,.T.dXgXdXrX[.[.rXrXrXrXrXrXrXrXrXrXrXrXrXrX].R.U.I.I.U.R.).).U.f.0 2 Q 4XzX                                                                                      ",
"                                                                                        O 2 ^ j.eXdXdXrXrX[.[.rXrXrXrXrXrXrXrXrXrXrXrXrXtX).U.U.U.U.U.R.`.).H.1.3 2 O.iXcX                                                                                      ",
"                                                                                      X O 6 y.U.tXdXdXrXrXrXrXrXrXrXrXrXrXrXrXrXrXrXrXtX].R.U.U.U.U.U.).].R.f.9 % e 4XzX                                                                                        ",
"                                                                                      + @ i k.`.dXdXrXrXrXrXrXrXrXrXrXrXrXrXrXrXrX[.'.`.R.U.U.U.U.U.R.`.`.H.:.3 2  .0XcX                                                                                        ",
"                                                                                    - - 2 ,.I.tXdXdXrX[.[.[.rXrXrXrXrXrXrXrXrXrX[.'.).R.U.U.U.U.U.U.).].R.f.0 2 r XXlX                                                                                          ",
"                                                                                    ; - 0 u.^.dXdXrX[.[.[.[.rXrXrXrXrXrXrXrXrXrX'.`.Y.U.I.I.U.U.U.R.].).H.:.3 2 X.qXxX                                                                                          ",
"                                                                                  , - 2 _ V.eXdXdXrX[.[.rXrXrXrXrXrXrXrXrXrXrXrX].R.U.I.I.I.U.U.U.).`.Y.f.0 % 7 %.pX                                                                                            ",
"                                                                                  : - 4 u.~.dXdXrX[.[.[.rXrXrXrXrXrXrXrXrXdXrX'.).Y.I.I.I.I.U.U.R.`.`.V.:.* + 7 $.                                                                                              ",
"                                                                                : - 2 ^ V.eXgXdXrX[.[.rXrXrXrXrXrXrXrXrXdXdXrX'.).U.I.I.I.U.U.R.).`.Y.g.E @ + 7                                                                                                 ",
"                                                                                - - 6 3.~.dXgXdXrXrXrXrXrXrXrXrXrXrXrXrXdXdXtX`.R.U.I.I.U.U.U.R.).^.S.y.4 + +                                                                                                   ",
"                                                                                @ < ^ B.eXgXgXrXrXrXrXrXrXrXrXrXrXrXrXrXrX'.].R.U.I.I.U.U.U.R.).^.U.j.( 5 + @                                                                                                   ",
"                                                                              @ @ 6 4.T.dXgXdXrXrXrXrXrXrXrXrXrXrXrXrXtX].).Y.U.I.I.I.U.U.Y.W.`.).I.y.r - @                                                                                                     ",
"                                                                              @ 2 ^ V.].gXdXdXrX[.rXrXrXrXrXrXrXrXrXrX'.).U.I.I.I.U.U.U.U.R.`.].^.k.( 6 - 2                                                                                                     ",
"                                                                            + < 0 u.T.dXgXdXrX[.[.rXrXrXrXrXrXrXrXrXrX].^.U.I.H.I.U.U.U.Y.).`.`.U.u.~ 7 e                                                                                                       ",
"                                                                            # 2 ,.S.eXgXdXrX[.[.rXrXrXrXrXrXrXrXrXrXrX'.).U.I.I.I.U.U.U.R.R.R.U.j.,.r Q X.                                                                                                      ",
"                                                                          o # 4 u.^.dXgXdXrX[.[.rXrXrXrXrXrXrXrXrXrXrX'.`.R.U.I.U.U.R.R.R.U.I.j.,.i 8 | $.4X                                                                                                    ",
"                                                                        , o O ~ V.eXgXdXdX[.[.rXrXrXrXrXrXrXrXrXrXrXrX].^.U.U.U.U.R.).).R.I.s._ i 6 6 ..4X5X                                                                                                    ",
"                                                                      oX, # % :.T.dXgXdXrX[.[.rXrXrXrXrXrXrXrXrXrXrX'.`.R.U.U.U.R.^.).W.I.j._ r e 0 q _ v.$.X.                                                                                                  ",
"                                                                  bXzXoXt < q g.`.dXdXrXrXrXrXrXrXrXrXrXrXrXrXrXrXrX'.`.Y.U.I.U.R.W.Y.I.k.r.Q r ~ :.<.u.y. .Q y                                                                                                 ",
"                                                                  cXuX$.Q ^ g.!.tXdXrXrXrXrXrXrXrXrXrXrXrXrXrXrXrXrXtX`.R.U.U.U.R.U.V.g.,.~ r ~ y.k.H.g._ r 7 7 r  .                                                                                            ",
"                                                                  9X$. ._ p.Q.sXdXdXrX[.[.rXrXrXrXrXrXrXrXrXrXrXrXrXtX].^.Y.Y.R.U.V.u._ ~ r ~ r.k.Y.R.V.,.0 6 6 7 r |                                                                                           ",
"                                                                  X./ ( 4.U.sXhXgXrXrX[.[.rXrXrXrXrXrXrXrXrXrXrXrXrX'.`.R.R.R.R.I.j.r./ / ( y.k.U.).).U.g.,.^ i 8 6 e |                                                                                         ",
"                                                                  7 0 :.Z.).dXhXdXrX[.rXrXrXrXrXrXrXrXrXrXrXrXrXrXrX].).Y.Y.R.Y.V.u._ _ y.j.V.U.W.).).R.I.V.g.4.^ 0 3 8  .                                                                                      ",
"                                                                  * 0 4.J.'.dXdXrXrXrXrXrXrXrXrXrXrXrXrXrXrXrXrXrX'.`.R.U.U.U.I.g.r._ y.S.Y.W.W.W.R.R.R.R.R.U.H.g.:.0 6 r X.5X                                                                                  ",
"                                                                  * R h.).[.[.[.rXrXrXrXrXrXrXrXrXrXrXrXrXrXrXrXrX'.`.).R.R.U.k.r._ ..j.U.`.`.).R.Y.U.Y.R.).).).U.h.4.^ r t  .c.8X                                                                              ",
"                                                                  3 ` B.`.[.[.[.[.rXrXrXrXrXrXrXrXrXrXrXrXrXrXrXrX[.'.].`.).U.j.r._ y.V.R.`.`.R.R.U.U.U.U.R.).].).R.V.y./ 6 6 ) 4X0X                                                                            ",
"                                                                  6 ,.V.].rX[.[.[.rXrXrXrXrXrXrXrXrXrXrXrXrXrXrXrXrXrXtX'.].Y.V.u.u.k.I.R.).).).).Y.U.I.U.U.R.).).).U.V.y.0 = 0 $.8X                                                                            ",
"                                                                2 8 y.U.'.rX[.[.[.rXrXrXrXrXrXrXrXrXrXrXrXrXrXrXrXrXrXrXrX'.).U.V.V.U.R.).).].].].).U.I.I.I.U.U.R.^.T.U.V.<.w 0 +.6X                                                                            ",
"                                                                4 ^ g.R.tXrXrXrXrXrXrXrXrXrXrXrXrXrXrXrXrXrXrXrXrXrXrXrXrX[.`.).R.).].'.'.'.tXrXrX`.R.U.I.I.I.U.U.U.U.R.R.G.2.1.+.4X7X                                                                          ",
"                                                              4 0 >.G.).[.rXrXrXrXrXrXrXrXrXrXrXrXrXrXrXrXrXrXrXrXrXrXrXrX[.'.'.'.rXrXrXrXrXrXrXrX'.).R.U.U.U.I.I.I.U.).].E.6.<.y.$.5X                                                                          ",
"                                                            3 4 *.2.G.P.[.[.rXrXrXrXrXrXrXrXrXrXrXrXrXrXrXrXrXrXrXrXrXrXrXrXrXrXdXdXdXdXrXrXrXrXrX[.'.`.).R.U.U.I.I.I.R.].).G.5.,.#.4X9X                                                                        ",
"                                                            3 9 *.;.e.P._.[.rXrXrXrXrXrXrXrXrXrXrXrXrXrXrXrXrXrXrXrXrX[.rXrXdXdXdXdXdXdXdXdXdXrX[.[.[.'.].].).R.U.I.I.Y.).W.G.5.<.+.$.7X                                                                        ",
"                                                            2 9 -.8.e.K.P.{.[.rXrXrXrXrXrXrXrXrXrXrXrXrXrXrXrXrXrXrX[.[.rXrXdXdXdXtXtXrXdXdXdXrX[.[.rXrXrXrX'.`.).R.U.Y.R.W.J.h.<...#.5X                                                                        ",
"                                                            2 9 =.9.q.w.P._.[.rXrXrXrXrXrXrXrXrXrXrXrXrXrXrXrXrXrXrX[.rXrX[.'.^.T.I.U.^.eXdXdXdXrXrXrXrXrXrXrXrX'.`.).).R.R.U.h.5.,.+.XXqX                                                                      ",
"                                                            3 w 7.9.q.w.K._.[.rXrXrXrXrXrXrXrXrXrXrXrXrXrXrXrXrXrXrXrXrXrX'.Y.j.y...y.j.U.^.eXrXdXdXdXrXrXrXrXrXrXtX'.].).R.U.H.f.<...$.9X                                                                      ",
"                                                            3 *.;.e.w.w.K._.[.rXrXrXrXrXrXrXrXrXrXrXrXrXrXrXrXrXrXrXrXdXrX].I.y.i e r / y.j.I.`.dXhXgXdXrX[.rXrXrXdXrX'.`.^.U.H.h.4.( O.7X                                                                      ",
"                                                            3 *.;.e.w.w.K._.[.rXrXrXrXrXrXrXrXrXrXrXrXrXrXrXrXrXrXrXrXdXdX].S.u./ e u u e ~ y.I.sXhXhXdXrX[.rXrXrXdXdX[.`.R.U.U.H.5.^  .oXuX                                                                    ",
"                                                            3 R 7.0.w.w.K.P.[.rXrXrXrXrXrXrXrXrXrXrXrXrXrXrXrXrXrXrXrXdXdXeX!.S.s.r./ e : 7 ~ s./.gXhXdXrXrXrXrXrXrXrX'.).R.U.Y.U.h.1._ XX9X                                                                    ",
"                                                          2 3 0 =.9.q.w.K.L._.[.rXrXrXrXrXrXrXrXrXrXrXrXrXrXrXrXrXrXrXrXdXtXeX].^.T.j.y.~ e r r.S.^.].eXrXrXrXrXrXrX'.`.R.U.U.R.).G.-.^ #.5X                                                                    ",
"                                                          3 3 4 *.;.e.w.w.L._.[.rXrXrXrXrXrXrXrXrXrXrXrXrXrXrXrXrXrXrXrXrXrXrXdXdXdX`.U.j.y...r.s.j.V.T.eXdXrXrXrXrX'.).U.I.I.^.].J.2.1.+.4X                                                                    ",
"                                                          3 3 3 0 =.9.w.w.K._.[.rXrXrXrXrXrXrXrXrXrXrXrXrXrXrXrXrXrXrXrXrXrXrXdXdXgXdXtX/.T.S.j.u.r._ s.!.dXdXrXrXrX'.).U.I.I.^.eXE.6.>.y.c.5X                                                                  ",
"                                                            3 3 9 -.9.q.w.K._.[.rXrXrXrXrXrXrXrXrXrXrXrXrXrXrXrXrXrXrXrXrXrXrXrXdXdXdXdXdXdXeXT.s./ r ..U.tXdXrXdXrX'.`.U.I.H.T.eX).n.2.y.v.5X                                                                  ",
"                                                            3 3 4 *.8.q.q.w.P.[.rXrXrXrXrXrXrXrXrXrXrXrXrXrXrXrXrXrXrXrXrXrXrXrXrXrXrXdXdXgXhXeXD._ r ( B.`.rXdXdXdXrX].R.U.I.Y.`.).G.2.<.d.4X                                                                  ",
"                                                            3 3 0 -.8.e.q.w.P._.rXrXrXrXrXrXrXrXrXrXrXrXrXrXrXrXrXrXrXrXrXrXrXrX[.[.rXrXrXdXhXgXT.y.~ ( j.T.tXdXdXdXrX'.).U.I.U.).Y.n.>.^ ..                                                                    ",
"                                                            3 3 0 -.8.e.w.K.P._.[.rXrXrXrXrXrXrXrXrXrXrXrXrXrXrXrXrXrXrXrXrXrXrX[.[.rX[.[.dXhXgX/.j._ / y.S.].dXdXdXrX'.].R.U.Y.R.H.5.w 3                                                                       ",
"                                                              3 0 -.;.9.w.P.{.[.rXrXrX[.rXrXrXrXrXrXrXrXrXrXrXrXrXrXrXrXrXrXrXrXrXrXrX[.[.rXdXdXeXS.y.( ,.j.^.rXdXdXdXrX'.`.R.R.Y.k.*.& O                                                                       ",
"                                                              3 0 R =.;.0.P.}.dXdXrXrX[.[.rXrXrXrXrXrXrXrXrXrXrXrXrXrXrXrXrXrXrXrXrXrX[.[.rXdXdXsXT.s._ _ u.T.eXdXdXdXrX'.'.).^.U.f.9 O O                                                                       ",
"                                                                4 9 R -.6.G.).dXgXgXrXrX[.rXrXrXrXrXrXrXrXrXrXrXrXrXrXrXrXrXrXrXrXrXrX[.[.rXdXdXdX!.j...( y.S.].dXdXdXrXrXrX'.).I.,.3 @ 5                                                                       ",
"                                                                3 4 0 0 R >.Z.!.sXgXgXdXrXrXrXrXrXrXrXrXrXrXrXrXrXrXrXrXrXrXrXrXrXrXrXrX[.[.rXdXdX].D.y.( _ j.!.dXdXdX'.[.[.'.R.k.^ 6 e X.                                                                      ",
"                                                                3 6 8 8 4 9 R 5.~.jXhXgXdXrXrXrXrXrXrXrXrXrXrXrXrXrXrXrXrXrXrXrXrXrXrXrX[.[.rXdXdXeX~.s._ ( u.T.sXdXrX].].`.R.H.<.0 7  .4X                                                                      ",
"                                                                  6 r Q Q e 3 0 g./.jXhXdXrXrXrXrXrXrXrXrXrXrXrXrXrXrXrXrXrXrXrXrXrXrXrXrXrXrXrXdXdX/.S.y.( r.S.eXdX[.).Y.U.k.4.^ 4 r #.0X                                                                      ",
"                                                                       .#.X.y 8 ^ Z./.sXdXrXrXrXrX[.[.[.rXrXrXrX[.[.[.[.[.rXrXrXrXrXrXrXrXrX[.rXrXdXsX~.s._ _ j./.dX[.).I.j.r.~ 8 8 / c.                                                                        ",
"                                                                        4X7XXX[ 0 R 6.!.tXrXdXdXrX[.[.[.rXrXrXrX[.[.[.[.rXrXrXrXrXrXrXrXrXrX[.[.rXdXgX/.B._ / u.T.rX[.W.k.,.~ e u y X.                                                                          ",
"                                                                          pXuX$.8 = R g.Y.tXgXgXdXrXrXrXrXrXrXrXrXrXrXdXdXrXrXrXrXrXrXdXdXrXrXrXrXdXhXeXB._ ~ _ k.).`.J.f.^ 8 : u Q                                                                             ",
"                                                                            zX8X| % 3 ^ k.^.dXhXdXdXdXdXdXrXrXrXrXdXgXgXdXdXrXrXrXdXdXdXdXdXrXrXdXdXdX!.s.~ e ~ y.V.H.k.>.0 2 -                                                                                 ",
"                                                                              iXc.Q 7 r ,.B.`.dXgXgXhXgXdXdXdXdXgXgXdXsXdXdXdXdXdXdXsXdXtXrXrXdXhXhXdXI._ e 5 8 ^ y.u.4.R 3 %                                                                                   ",
"                                                                                  $.} y 0 :.k.!.eXdXdXdXtXtXdXdXsXsX].^.^.].dXhXdXdX].^.^.^.].dXhXhX].k.~ 5 : 7 r ~ ( ~ 4 *                                                                                     ",
"                                                                                      [ 8 0 :.g.I.^.^.!.U.U.!.^.!.J.Z.h.k.S.~.].].!.V.h.g.j.I./.sX].U.y.i 5 7 8 r r r r                                                                                         ",
"                                                                                        r 6 6 ^ ,.f.u.4.,.3.g.h.6.6.4.,._ ,.4.6.h.h.3.( ~ ( y.B.C.V.u.( r e r r r                                                                                               ",
"                                                                                          7 5 6 0 ~ ~ ~ ~ ~ R *.>.y.y. ./ r 0 R :.,.) y e e ~ ,.<.,.^ ~ ~ ~                                                                                                     ",
"                                                                                            5 2 2 3 8 Q [ Q 8 0 ..c.4X$.{ t 6 8 ~  .X.} } t r 8 4 4 r                                                                                                           ",
"                                                                                                      Q %.%. .X.$.8X0X7X  [ e e Q { &.@.@.X.W 6                                                                                                                 ",
"                                                                                                            5X7X0X                                                                                                                                              ",
"                                                                                                                                                                                                                                                                ",
"                                                                                                                                                                                                                                                                ",
"                                                                                                                                                                                                                                                                ",
"                                                                                                                                                                                                                                                                ",
"                                                                                                                                                                                                                                                                ",
"                                                                                                                                                                                                                                                                ",
"                                                                                                                                                                                                                                                                "
};
