/* XPM */
static char *_000[] = {
/* columns rows colors chars-per-pixel */
"128 128 230 2 ",
"   c None",
".  c #975D29",
"X  c #9B6534",
"o  c #9A663B",
"O  c #9D6A3D",
"+  c #976436",
"@  c #98602F",
"#  c #A36D3C",
"$  c #A66C37",
"%  c #AB713D",
"&  c #B17238",
"*  c #9E6D42",
"=  c #936641",
"-  c #9E724C",
";  c #9E7B4B",
":  c #9F7752",
">  c #A16E42",
",  c #AB6B4D",
"<  c #A57244",
"1  c #AB7545",
"2  c #A4754B",
"3  c #A9774A",
"4  c #A5794E",
"5  c #AC7A4C",
"6  c #AE7847",
"7  c #B27A46",
"8  c #B37C4B",
"9  c #BB7E48",
"0  c #B77B46",
"q  c #A47A54",
"w  c #AC7D53",
"e  c #AB7D5B",
"r  c #A47A57",
"t  c #B27F52",
"y  c #B87B5A",
"u  c #B86456",
"i  c #B97E68",
"p  c #B67B68",
"a  c #CD5A5A",
"s  c #D55555",
"d  c #D35B5C",
"f  c #DC5C5C",
"g  c #CA665C",
"h  c #C6715C",
"j  c #D35D61",
"k  c #CC6765",
"l  c #D56363",
"z  c #DB6363",
"x  c #D56B6B",
"c  c #DC6D6D",
"v  c #DC666B",
"b  c #C97A6C",
"n  c #D2776E",
"m  c #DD7373",
"M  c #DD7A7A",
"N  c #D77A77",
"B  c #CF7370",
"V  c #E36465",
"C  c #EC6A6B",
"Z  c #E46B6B",
"A  c #F16D6D",
"S  c #EB6C71",
"D  c #E27273",
"F  c #EB7474",
"G  c #E67B7B",
"H  c #ED7979",
"J  c #ED7877",
"K  c #F47374",
"L  c #F47D7D",
"P  c #FD7E7E",
"I  c #F87578",
"U  c #BC824D",
"Y  c #B4814E",
"T  c #AD8255",
"R  c #AD825B",
"E  c #A98653",
"W  c #B48254",
"Q  c #BB8554",
"!  c #B4855A",
"~  c #BB865A",
"^  c #BB895C",
"/  c #B68959",
"(  c #BD945C",
")  c #AC8563",
"_  c #A88567",
"`  c #B18661",
"'  c #B48A66",
"]  c #BC8C62",
"[  c #B48D6C",
"{  c #BA8F69",
"}  c #BA8265",
"|  c #B6916E",
" . c #BA916D",
".. c #B59273",
"X. c #BA9574",
"o. c #BE9C7C",
"O. c #B7977A",
"+. c #C4864C",
"@. c #CC894C",
"#. c #C7864B",
"$. c #D48D4E",
"%. c #C48954",
"&. c #CA8B54",
"*. c #C38C5B",
"=. c #C98E5A",
"-. c #C38753",
";. c #C3925D",
":. c #CB935D",
">. c #C89559",
",. c #D3955C",
"<. c #D89454",
"1. c #ED9D53",
"2. c #E69853",
"3. c #F29F54",
"4. c #EA984F",
"5. c #FCA555",
"6. c #FFA957",
"7. c #FFA95B",
"8. c #F6A357",
"9. c #C28E61",
"0. c #C5836B",
"q. c #C59263",
"w. c #CB9564",
"e. c #CC9965",
"r. c #CD9A6A",
"t. c #C69668",
"y. c #D39A65",
"u. c #DD9E65",
"i. c #D39C6A",
"p. c #D99E6B",
"a. c #D19663",
"s. c #CA8377",
"d. c #D6837B",
"f. c #C29D7D",
"g. c #D39874",
"h. c #E09F65",
"j. c #E9817A",
"k. c #FF807F",
"l. c #F0827E",
"z. c #CAA165",
"x. c #DEA265",
"c. c #D5A16D",
"v. c #DBA26D",
"b. c #D8A569",
"n. c #DDA471",
"m. c #DEAA73",
"M. c #D8B174",
"N. c #E2A066",
"B. c #E3A56D",
"V. c #E2AA6E",
"C. c #E9A76D",
"Z. c #FFAD65",
"A. c #FEAE69",
"S. c #F0A562",
"D. c #FCB16D",
"F. c #E3A672",
"G. c #E6A973",
"H. c #EBAC75",
"J. c #EDAF78",
"K. c #E7AF7A",
"L. c #F0AF78",
"P. c #ECB276",
"I. c #EDB27A",
"U. c #EDBB7B",
"Y. c #E7B679",
"T. c #F2B176",
"R. c #FFB473",
"E. c #F3B37A",
"W. c #F9B77D",
"Q. c #F3BA7E",
"!. c #FDBA7E",
"~. c #FFBA73",
"^. c #FBC17E",
"/. c #DA7E85",
"(. c #E77E84",
"). c #FF7F83",
"_. c #F47C82",
"`. c #BE9E82",
"'. c #BFA084",
"]. c #BDA38E",
"[. c #DB8484",
"{. c #DA8A88",
"}. c #DE9696",
"|. c #DE8F90",
" X c #E98286",
".X c #F58284",
"XX c #FF8080",
"oX c #FF8181",
"OX c #FF8383",
"+X c #FD8282",
"@X c #FF8585",
"#X c #FD8686",
"$X c #FE8182",
"%X c #FD838B",
"&X c #FA878A",
"*X c #E29583",
"=X c #E09A9A",
"-X c #C3A183",
";X c #C4A58A",
":X c #C9A88A",
">X c #C5AB93",
",X c #CAAD94",
"<X c #C6AF9A",
"1X c #C8AF99",
"2X c #C7B19B",
"3X c #CAB29C",
"4X c #ECAB80",
"5X c #EBBD81",
"6X c #F4BC81",
"7X c #FFBB80",
"8X c #FDB787",
"9X c #F1A786",
"0X c #D1B7A1",
"qX c #D4BEAA",
"wX c #D4BBA4",
"eX c #CCB5A2",
"rX c #E3A4A4",
"tX c #E6B2B2",
"yX c #F5C183",
"uX c #FEC285",
"iX c #FEC689",
"pX c #FEC98A",
"aX c #FBC588",
"sX c #DBC6B5",
"dX c #D3C0AF",
"fX c #E1CDBC",
"gX c #DDCEC2",
"hX c #E5D5C7",
"jX c #E7DFD9",
"kX c #F1EBE5",
/* pixels */
"                                                                                                                                                                                                                                                                ",
"                                                                                                                                                                                                                                                                ",
"                                                                                                                                                                                                                                                                ",
"                                                                                                                                                                                                                                                                ",
"                                                                                                                                                                                                                                                                ",
"                                                                                                                                                                                                                                                                ",
"                                                                                                                                                                                                                                                                ",
"                                                                                                                                                                                                                                                                ",
"                                                                                                                                                                    x M M M M M M M M M M                                                                       ",
"                                                                                                                                                                  a x M M M M M M M M M M m                                                                     ",
"                                                                                                                                                                a d x M M M M M M M M M M m m c                                                                 ",
"                                                                                                                                                              k a l D G G G G G G G G G G G H J D x                                                             ",
"                                                                                                                                                            x k l D J L .XL L L L L L L L .X.XL J c l                                                           ",
"                                                                                                                                                          m v l c J +X#X$X$X$X$X$X$X$X$X#X#X+XJ D x k x c                                                       ",
"                                                                                                                                                        D D V V F .X#X#X#X#X$X$X$X$X#X#X#X$XL D x x x D J V                                                     ",
"                                                                                                                                                      l Z F C K L #X#X#X$X$X$X$X$X$X$X$X+XL F c x x m J L C f                                                   ",
"                                                                                                                                                    g l V K k.#X#X$X$X$X$X$X$X$X$X$X$XL J D D D m F J L P A f                                                   ",
"                                                                                                                                                    k z C I #X&X#X$XP P P P $X$X$X$XP J m c D J J L +X$X$XA z m                                                 ",
"                                                                                                                                                    B v C I @X#X#X$XP P P P $X$X$X$XP F c c F L +X#X#X$X$XA f m                                                 ",
"                                                                                                                                                  0.B v S I k.@X$X$Xk.k.k.k.$X$X$X$X$XL J J L $X#X#X#X$X$XA f x }.                                              ",
"                                                                                                                                                 .} k v S P $X#X%X).P P k.k.$X$X$X$X$XL L L P $X$X$X$X$X$XA f x }.tX                                            ",
"                                                                                                                                              | e , u k D _.%X%X%X).P P k.k.$X$X$X$X$X$X$X$X$X$X$X$X$X$X$XA f x |.rX                                            ",
"                                                                                                                                            X.R > O , y n (..X%X).P P P k.k.k.k.$X$X$X$X$X$X$X$Xk.$X$X$XL C f l [.=X                                            ",
"                                                                                                                                          X.! 3 < 1 w ` 0.N /.(.J L L $X$Xk.k.P k.$X$X$X$X$X$X$X$X$X$XP K V f l M |.                                            ",
"                                                                                                                                        X.! < % Q e.z.t.t.0.b b n M j..X$X$X).P P $X$X$X$X$X$X$X$X$X$XI C f s d N |.                                            ",
"                                                                                                                                      X.` 3 % U v.5XY.M.r.] y y i 0.d. X.X%X$X).$X$X$Xk.k.k.$X$X$X$X$XL V s s l M }.                                            ",
"                                                                                                                                    -X' < # U v.6XpXpXyXF.e./ / ^ 0.d./.(..X.X.X.X$X).P k.k.$Xk.$X$X$XI C f s l [.rX                                            ",
"                                                                                                                                    -X' < 7 y.6XiXpXpXiXE.V.z.z.z.g.[./.(.(. X X.X.X$X$X$X$X$X$Xk.$X$XL F f s l {.rX                                            ",
"                                                                                                                                    '.[ U &.P.iXiXuXuXuX7XQ.U.U.I.4X*X[./.N N d.[. X.X%X%X).).).k.$X$XL F V s l {.rX                                            ",
"                                                                                                                                  ;XO.) *.u.Q.iXiX!.!.7X7XuXiXaXuX8X9X*Xd.i p i 0.d. X%X%X%X).$X$X$X$XL F z s l {.rX                                            ",
"                                                                                                                                f.o._ q *.B.yXiXuX!.!.!.7XuXiXiXuXiX7X4Xg.} q r e 0.d. X.X+X$X$X%X%X$XL Z l d x |.                                              ",
"                                                                                                                                ! ) q 3 *.H.yXiXuX!.!.7X7X7X7X7X7XuXiXyXm.q.E ; : e i N M j.l..X%X%X).I Z j j M                                                 ",
"                                                                                                                                O 2 3 Q v.I.uXuX7X7X7X7X7X7X7X7X7XuXuXuXU.b.;.T 4 q e i 0.0.d. X.X%X).K V d l M                                                 ",
"                                                                                                                                @ < -.p.Y.6XuX7X7X7X7X7X7X7X7X7X7X7X7XuXyXU.m.q.! T ! ! T ! } s.[.(.J Z l g k                                                   ",
"                                                                                                                            . @ # Q v.W.uXiX7X7X!.7X7X7X7X7X7X7X7X!.!.uXaXaXW.G.i.e.e.;.E E r p b b n h h h                                                     ",
"                                                                                                                          X X < ~ v.E.uXiXuX7X7X!.7X7X7X7X7X7X7X7X!.!.7XuXiX7XW.I.I.K.b.( E r e ! ~ y y y y                                                     ",
"                                                                                                                        O X < ~ v.W.uXiXuX7X7X7X7X7X7X7X7X7X7X7X7X7X!.7X7X7X7X7X7X7X!.P.i.^ / ^ ^ ;.*.^ ! !                                                     ",
"                                                                                                                        * # Q i.E.uXuX7X7X!.!.7X7X7X7X7X7X7X7X7X7X7X7X7X!.!.7X!.6X7X6XE.F.i.w.e.c.b.b.:.W 5                                                     ",
"                                                                                                                        > 7 a.I.7XuXuX7X7X!.!.7X7X7X7X7X7X7X7X7X7X7X7X7X7X7X!.W.E.I.I.H.H.F.F.J.P.P.V.:.Y <                                                     ",
"                                                                                                                        2 U B.7XuX7X7X7X7X7X7X7X7X7X7X7X7X7X7X7X7X7X7X7XuXuX!.E.H.F.F.G.H.H.E.W.6XE.x.*.8 <                                                     ",
"                                                                                                                      r w *.G.uXiX7X7X7X7X7X7X7X7X7X7X7X7X7X7X7X7X7X7X7X7X7XW.E.G.F.F.G.H.E.W.!.E.v.*.t w w                                                     ",
"                                                                                                                    - 4 w q.K.uXuX7X7X7X7X7X7X7X7X7X7X7X7X7X7X7X7X7X7X7X7X7XW.E.G.F.F.H.H.E.W.J.p.%.5 w !  .                                                    ",
"                                                                                                                  < > 3 ~ c.I.7XuX7X7X7X7X7X7X7X7X7X7X7X7X7X7X7X7X7X7X7XW.W.E.H.G.G.G.H.E.E.K.p.%.6 4 R X.f.                                                    ",
"                                                                                                                * < 1 Q i.K.6X7X7X7X7X7X7X7X7X7X7X7X7X7X7X7X7X7X7X7X7X7XW.E.H.G.G.H.J.L.E.J.v.*.5 4 R | f.                                                      ",
"                                                                                                              O O 3 %.v.U.yXuX7X7X7X7X7X7X7X7X7X7X7X7X7X7X7X7X7X7X7XuX7XW.H.F.F.G.H.E.E.J.p.*.W w R | f.                                                        ",
"                                                                                                            O O < ~ v.Q.iXiXuX7X7X7X7X7X7X7X7X7X7X7X7X7X7X7X7X7X7X7XuX7XW.H.F.F.G.H.E.J.n.*.1 < T X.-X                                                          ",
"                                                                                                      sXf.4 O < Q v.E.uXiXuX7X7X7X7X7X7X7X7X7X7X7X7X7X7X7X7X7X7X7X7X7XW.E.H.G.G.G.J.H.n.r.t X X T f.                                                            ",
"                                                                                                    fX3X' < < W p.E.uXuX7X7X7X7X7X7X7X7X7X7X7X7X7X7X7X7X7X7X7X7X7X7XW.W.I.J.J.J.H.G.v.r.] 4 X X ! -X                                                            ",
"                                                                                                  sX,X[ 2 > W i.I.7XiXuX7X7X7X7X7X7X7X7X7X7X7X7X7X7X7X7X7X7X7X7X7XW.E.H.H.H.H.E.H.F.e.^ T 4 > 3 { -X                                                            ",
"                                                                                                fX3X[ - O 8 a.I.7XuXuX7X7X7X7X7X7X7X7X7X7X7X7X7X7X7X7X7X7X7X7X7XW.W.H.G.F.G.H.E.E.n.9.w 4 4 T { f.                                                              ",
"                                                                                              fX3X| 2 # 8 w.I.uXiXuX7X7X7X7X7X7X7X7X7X7X7X7X7X7X7X7X7X7X7X7X7XW.E.H.G.F.F.H.E.E.E.n.9.4 > 3 ' -X                                                                ",
"                                                                                              ,X..4 > 8 e.Y.aXiXuX7X7X7X7X7X7X7X7X7X7X7X7X7X7X7X7X7X7X7X7X7X6XW.H.G.F.F.G.H.E.E.J.i.] 4 # < '                                                                   ",
"                                                                                              R 2 * 8 w.Y.aXpXiX7X7X!.7X7X7X7X7X7X7X7X7X7X7X7X7X7X7X7X7X7X7XW.E.G.F.F.G.H.E.E.J.v.t.^ 4 > < t                                                                   ",
"                                                                                            O O O 6 w.K.aXiXiX7X7X!.!.7X7X7X7X7X7X7X7X7X7X7X7X7X7X7X7X7X7XW.E.J.G.F.G.H.H.I.H.v.q.^ T 3 # $                                                                     ",
"                                                                                          X o * 8 w.H.7XiXiXuX7X7X!.7X7X7X7X7X7X7X7X7X7X7X7X7X7X7X7X7X7XW.E.H.G.F.G.H.J.J.G.v.e.! w 3 < # $                                                                     ",
"                                                                                        > O > t w.G.7XuXuX7X7X7X7X7X7X7X7X7X7X7X7X7X7X7X7X7X7X7X7X7X7XW.E.J.G.F.G.J.H.H.G.n.t.! 4 3 < 4 6                                                                       ",
"                                                                                      2 * * 5 w.G.6XuXuX7X7X7X7X7X7X7X7X7X7X7X7X7X7X7X7X7X7X7X7X7X7XW.E.J.G.F.F.G.J.E.E.G.i.9.w < < w { X.                                                                      ",
"                                                                                    q * * 6 *.F.W.uXuX7X7X7X7X7X7X7X7X7X7X7X7X7X7X7X7X7X7X7X7X7X7XW.E.H.G.G.F.G.G.H.E.W.J.v.*.7 # 4  .:X                                                                        ",
"                                                                                    - * 6 *.n.6XuXuXuX7X7X!.7X7X7X7X7X7X7X7X7X7X7X7X7X7X7X7X7X7XW.E.H.G.F.F.G.G.H.H.T.E.E.B.,.9 6 ' ;XsX                                                                        ",
"                                                                                  - * 3 %.v.Q.uXuX7X7X!.!.!.7X7X7X7X7X7X7X7X7X7X7X7X7X7X7X7X7XW.E.H.F.F.F.G.H.H.H.H.J.J.G.u.<.-.] -XqX                                                                          ",
"                                                                                * * < Q v.Q.iXiXuX7X!.!.7X7X7X7X7X7X7X7X7X7X7X7X7X7X7X7X7X7XW.E.J.G.F.F.G.G.H.H.H.J.F.p.:.&.&.e.:X0X                                                                            ",
"                                                                              * O < Q i.U.aXiXuX7X!.!.!.7X7X7X7X7X7X7X7X7X7X7X7X7X7X7X7X7X6XE.H.G.F.F.G.G.J.H.E.E.G.i.Q 7 7 ] :XwX                                                                              ",
"                                                                            * * < Q p.Y.yXiXuX7X!.!.!.7X7X7X7X7X7X7X7X7X7X7X7X7X!.7X7X7XW.W.H.G.F.F.G.G.H.H.E.E.J.p.*.1 O w o.0X                                                                                ",
"                                                                          O * 2 Q p.I.yXiXuX7X7X!.7X7X7X7X7X7X7X7X7X7X7X7X7X7X7X!.W.W.W.E.J.H.F.G.G.G.H.H.E.E.K.v.*.1 # 4 ..3XsX                                                                                ",
"                                                                        o * 3 ~ p.I.uXiXuX7X7X7X7X7X7X7X7X7X7X7X7X7X7X7X7X7X7X7XW.E.H.J.H.G.G.G.G.G.H.H.E.E.H.v.*.6 > q X.0XgX                                                                                  ",
"                                                                      + o 3 ^ p.E.uXiXuX7X7X7X7X7X7X7X7X7X7X7X7X7X7X7X7X7X7X7XW.E.J.G.F.F.G.G.G.G.H.H.E.W.J.x.%.1 > w o.wXhX                                                                                    ",
"                                                              jX<X_ = + > Q p.E.uXiXuX7X7X!.7X7X7X7X7X7X7X7X7X7X7X7X7XuXuX7XW.E.H.G.F.F.F.G.G.G.H.H.E.E.E.v.*.1 # w o.qXhX                                                                                      ",
"                                                          kXkXgX].r o O 8 y.I.uXiXuX7X7X!.!.7X7X7X7X7X7X7X7X7X7X7X7X7X7X7XW.E.H.G.G.F.G.G.G.G.H.J.E.E.J.B.=.1 # 4 X.wXhX                                                                                        ",
"                                                          dXdX1X..w 1 U y.I.uXiXuX7X7X!.!.7X7X7X7X7X7X7X7X7X7X7X7XW.W.W.W.E.H.G.F.F.G.H.G.G.H.H.E.E.J.x.*.7 < q X.0XhX                                                                                          ",
"                                                          X.X.| ^ Q >.b.P.6XuXuX7X7X!.!.7X7X7X7X7X7X7X7X7X7X7X7XW.W.E.H.J.J.H.G.G.G.G.H.G.H.H.E.E.J.v.*.1 > 4 X.0XhX                                                                                            ",
"                                                          4 w W ;.b.Y.6XuX7X7X7X7X7X!.7X7X7X7X7X7X7X7X7X7X7X7X7XW.E.H.F.F.F.G.G.G.G.G.H.H.H.H.E.J.v.*.6 O * ' ,XfX                                                                                              ",
"                                                          < 8 %.x.P.yXiXiX7X7X7X7X7X7X7X7X7X7X7X7X7X7X7X7X7X7X7XW.E.G.F.n.F.G.G.H.H.G.H.H.T.E.J.v.q.W > o 3 X.                                                                                                  ",
"                                                        < 8 =.N.T.!.iXiXuX7X!.7X7X7X7X7X7X7X7X7X7X7X7X7X7X7X7X7XW.E.H.F.F.F.G.H.H.H.H.J.L.E.J.v.q.W 3 O O                                                                                                       ",
"                                                        3 *.x.T.~.!.7X7X7X7X7X7X7X7X7X7X7X7X7X7X7X7X7X7X7X7X7XW.E.I.H.G.G.G.G.H.H.J.H.E.E.J.v.w.t 3 < >                                                                                                         ",
"                                                      O 3 ;.G.!.!.!.7X7X7X7X7X7X7X7X7X7X7X7X7X7X7X7X7X7X7X7XW.E.H.H.G.H.H.H.H.H.H.H.E.E.E.F.e.W < * >                                                                                                           ",
"                                                    > < W i.I.!.!.~.!.7X7X7X7X7X7X7X7X7X7X7X7X7X7X7X7X7X7X7XW.I.G.F.F.H.H.H.J.H.J.H.G.F.v.w.~ w 4 3                                                                                                             ",
"                                                  1 8 Q y.G.W.!.!.~.!.7X7X7X7X7X7X7X7X7X7X7X7X7X7X7X7X7X7X7XW.I.G.F.F.H.H.E.E.E.G.v.r.q.*.W w T ` !                                                                                                             ",
"                                                1 7 +.,.C.W.7X7X!.!.!.7X7X7X7X7X7X7X7X7X7X7X7X7X7X7X7X7X7X7XW.I.G.G.H.H.H.J.J.G.v.w.! w 4 6 w ' o.                                                                                                              ",
"                                              < 1 9 $.1.A.!.7X7X7X7X!.7X7X7X7X7X7X7X7X7X7X7X7X7X7X7X7X7XW.W.E.H.H.J.H.H.v.p.i.e.q.! w w 5 8 W  .:X                                                                                                              ",
"                                              < 7 #.<.8.A.R.!.7X7X7X7X7X7X7X7X7X7X7X7X7X7X7X7X7X7X7X7X!.W.J.H.H.J.J.H.F.y.9.^ ! ! T T ! *.=.%. .-X-X                                                                                                            ",
"                                            < 1 9 $.1.6.A.R.!.7X7X7X7X7X7X7X7X7X7X7X7X7X7X7X7X7X7X7X7XW.E.H.G.G.H.H.G.p.q.! T T W ! ^ w.x.u.:.] [ [                                                                                                             ",
"                                            1 0 @.2.8.7.A.R.!.7X7X7X7X7X7X7X7X7X7X7X7X7X7X7X7X7X7X7X7XW.E.E.H.H.F.v.i.q.9.9.9.9.9.e.p.G.L.G.w.! q r                                                                                                             ",
"                                            1 +.<.3.6.7.A.R.!.7X7X7X7X7X7X7X7X7X7X7X7X7X7X7X7X7X7X7X7X7XW.W.W.T.F.w.^ ! q.i.F.F.F.F.G.E.E.G.w.W 2 2 T {                                                                                                         ",
"                                          < 7 @.1.5.6.7.A.R.!.7X7X7X7X7X7X7X7X7X7X7X7X7X7X7X7X7X7X7X7X7X7X7X!.E.v.q.! ^ r.G.E.E.E.H.H.E.I.G.i.^ 6 3 w `  .                                                                                                      ",
"                                          < 7 @.3.6.6.7.A.R.!.7X7X7X7X7X7X7X7X7X7X7X7X7X7X7X7X7X7X7X7X7X7X7X!.E.F.i.q.e.p.H.L.E.H.H.H.J.J.J.F.y.*.t 4 w !                                                                                                       ",
"                                        < < 7 @.8.6.6.Z.D.~.!.7X7X7X7X7X7X7X7X7X7X7X7X7X7X7X7X7X7X7X7X7X7X7XW.E.G.F.B.F.G.H.H.H.H.H.H.H.J.H.J.H.p.*.t < 3  .                                                                                                    ",
"                                        1 1 8 @.1.6.6.Z.R.~.7X7X7X7X7X7X7X7X7X7X7X7X7X7X7X7X7X7X7X7X7X7X7X7XW.E.E.E.E.E.E.E.E.E.E.H.H.G.G.J.E.E.J.v.*.1 # !                                                                                                     ",
"                                        1 1 8 @.1.6.6.Z.R.!.7X7X7X7X7X7X7X7X7X7X7X7X7X7X7X7X7X7X7X7X7X7X7X7X7X6XW.W.7X7X!.W.W.W.W.E.H.F.F.H.J.E.E.J.u.U # w ;X                                                                                                  ",
"                                        1 < 6 @.1.6.6.A.R.!.7X7X7X7X7X7X7X7X7X7X7X7X7X7X7X7X7X7X7X7X!.7X7X7X7XuXuXuX7X7X7X7X7X7X!.E.J.F.F.G.H.I.E.E.G.:.5 e O.:X                                                                                                ",
"                                        1 1 7 @.1.6.7.A.R.!.7X7X7X7X7X7X7X7X7X7X7X7X7X7X7X7X7X7X7X7X!.7X7XuXuXiXiXuX7X7X7X7XuX7X7XE.J.F.F.G.G.J.I.E.J.i.~ w R X.:X                                                                                              ",
"                                        1 7 U $.8.6.7.A.R.7X7X7X7X7X7X7X7X7X7X7X7X7X7X7X7X7X7X7X7X7X!.7X7X7X7X7X7X7X7X7X7X7X7X7X!.W.J.G.G.G.G.H.H.J.H.v.9.5 < W f.3X                                                                                            ",
"                                        1 8 @.2.8.5.6.A.~.7X7X7X7X7X7X7X7X7X7X7X7X7X7X7X7X7X7X7X7X7X7XW.E.G.v.v.G.E.7XuXuX7X7X!.!.W.E.J.H.G.G.G.H.H.G.F.i.U % 5 o.3X                                                                                            ",
"                                        6 9 $.4.5.5.7.A.~.7X7X7X7X7X7X7X7X7X7X7X7X7X7X7X7X7X7X7X7XuXuXW.F.w.! ! 9.v.E.uXiXuX7X!.!.7XW.W.J.G.F.F.G.H.H.H.G.,.9 W `.2X                                                                                            ",
"                                        6 9 @.1.8.7.A.D.!.7X7X7X7X7X7X7X7X7X7X7X7X7X7X7X7X7X7X7X7XuXuXW.n.9.w - q ] n.E.yXuX7X!.7X7X7X!.W.H.G.F.F.G.H.E.T.N.%.] '.2X                                                                                            ",
"                                        1 0 +.<.S.D.~.~.7X7X7X7X7X7X7X7X7X7X7X7X7X7X7X7X7X7X7X7X7X7XuX7XI.v.9.w : q ^ i.I.7XuXuX7X7X7X7X6XW.J.G.F.F.G.E.T.N.&.] '.2X                                                                                            ",
"                                        1 1 8 +.,.T.^.iX7X7X7X7X7X7X7X7X7X7X7X7X7X7X7X7X7X7X7X7X7X7X7X7X7XQ.F.e.w - - ^ v.Q.iXiXuX!.7X7X7X7XW.H.G.G.G.L.L.h.%.^ '.2X                                                                                            ",
"                                        3 3 3 8 +.x.Q.iXuX!.7X7X7X7X7X7X7X7X7X7X7X7X7X7X7X7X7X7X7X7X7X7XuXiX7XG.q.w - w w.I.iXiXuX!.!.7X7X7X6XE.P.J.H.H.H.u.-.^ `.2X                                                                                            ",
"                                        3 4 w 3 & #.F.aXiX7X7X7X7X7X7X7X7X7X7X7X7X7X7X7X7X7X7X7X7X7X7X7XuXiXuX6XG.q.q w w.I.aXiXuX!.!.7X7X7X7XW.W.E.J.J.J.u.-.^ `.2X                                                                                            ",
"                                          ! [ R # % :.Y.aXuX7X7X7X7X7X7X7X7X7X7X7X7X7X7X7X7X7X7X7X7X7X7X7XuXuXuX6Xm.q.^ w.F.Q.6X7X7X7X7X7X7X7XuX7XW.J.J.H.u.%.~ `.2X                                                                                            ",
"                                            f.X.w < Q m.yXiXuX7X7X7X7X7X7X7X7X7X7X7X7X7X7X7X7X7X7X7X7X!.!.7X7XuXiX6XF.i.r.i.n.K.6X7X7X7X7X7X7XuX7XW.J.J.H.u.%.~ `.2X                                                                                            ",
"                                              >XO.) W y.Q.pXiX7X7X7X7X7X7X7X7X7X7X7X7X7X7X7X7X7X7X7X7X7X!.!.7X7XuXuX6XK.i.^ ^ i.I.uXuX7X7X7X7X7XW.E.J.J.H.u.%.~ o.2X                                                                                            ",
"                                                2XX.8 #.V.aXiX7X7X7X7X7X7X7X7X7X7X7X7X7X7X7X7X7X7X7X7X7X7X7X7X!.7XuXiXQ.i.! w q.I.iXuX7X7X7X!.W.E.H.G.H.H.u.%.~ o.2X                                                                                            ",
"                                                qXo.< & ,.I.7X7X7X7X7X7X7X7X7X7X7X7X7X7X7X7X7X7X7X7X7X7X7X7X7X!.7XuXiX6Xi.! w q.I.iXuX7X7X7XW.E.J.G.G.H.L.h.%.~ o.1X                                                                                            ",
"                                                qX-X1 $ Q n.6X7XuX7X7X!.!.7X7X7X7X7X7X7X7X7X7X7X7X7X7X7X7X7X7X!.7XuXiXQ.i.~ ! e.I.uXuX7X7X7XW.H.G.F.G.J.E.h.%.~ o.>X                                                                                            ",
"                                                  :X! < 5 e.I.uXiX7X7X!.!.7X7X7X7X7X7X7X7X7X7X7X7X7X7X7X7X7X7X7X7XuXuXE.i.^ ! e.I.uXuX7X7X7XW.H.F.F.G.I.E.N.#.Q o.>X                                                                                            ",
"                                                    o.R 4 *.H.iXiXuX7X7X7X7X7X7X7X7X7X7X7X7X7X7X7X7X7X7X7X7X7X7X7XuXuXE.i.^ ! e.I.uXuX7X7X7XW.H.G.F.G.E.W.B.@.Q X.>X                                                                                            ",
"                                                      [ 4 8 x.7XiXuXuX7X7X7X7X7X7X7X7X7X7X7X7X7X7X7X7X7X7X7X7X7X7XuXiXE.i.^ ! e.I.uXuX7X7X7XW.H.G.F.G.E.W.C.@.Q X.>X                                                                                            ",
"                                                        w 6 =.H.6XuXiXiXiXuX7X7X!.!.7X7X7X7X7X7X7X7X7X7X7X7X7X7X7XuXiXE.i.^ ! e.I.uXuX7X7X7XW.T.G.F.G.E.W.C.&.Q o.>X                                                                                            ",
"                                                        w < 8 w.G.7XiXiXiX7X7X7X7X7X7X7X7X7X7X7X7X7X7X7X7X7X7X7X7XuXiXQ.c.^ ! e.I.uXuX7X7X7XW.E.H.G.H.H.J.u.&.^ f.1X                                                                                            ",
"                                                        w 2 3 W a.B.P.I.Q.7XuXiXiXuXuXuXuX7X7X!.!.!.!.!.7X7X7X7X7XuXiXQ.c.^ ! e.K.uXuX7X7X7XW.E.J.J.H.G.y.+.9 ^                                                                                                 ",
"                                                          3 2 3 Q %.=.:.c.K.6XpXpXiXiXiXuX7X7X!.!.7X7X7X7X7X7X!.7XuXiX6Xc.^ ! q.J.uXuX7X7X7XW.E.H.I.J.u.U $                                                                                                     ",
"                                                            4 3 < 1 t W Q :.B.P.P.P.P.E.6X7XuXuXuXuXuXuX7X7X!.!.!.uXiX6Xn.9.! q.K.uX7X6X6X7X!.W.E.K.n.*.$ .                                                                                                     ",
"                                                                  3 ` ) 3 % +.$.,.&.:.a.n.E.iXiXiXiXiXiXuX7X!.!.!.uXiXyXm.9.! e.I.7X6XE.E.W.W.W.H.v.w.8 # .                                                                                                     ",
"                                                                    X.X.w % 0 Q %.Q W Q *.p.Y.^.^.Q.6X7X7X7X7X7X7XiXiX5Xc.^ ! e.I.7XW.I.H.H.G.C.u.=.t 3 w w                                                                                                     ",
"                                                                      -XX.[ X.f.f.o.[ R 6 U ,.x.B.x.x.F.I.6XuXiXiXuX6Xm.q.! ! e.J.W.W.H.n.p.w.:.%.7 < w X.:X                                                                                                    ",
"                                                                        ,X>X,X2XeX1X`._ < < Q :.w.*.~ *.i.J.yXiXiX7XG.w.W q w q.B.E.E.G.y.*.! t 5 3 w [ :X                                                                                                      ",
"                                                                                      _ 4 3 W ] { ` q 4 ~ y.P.yXyXP.a.t - - 4 ^ y.B.B.u.*.t q q r T [ f.                                                                                                        ",
"                                                                                        e w R [ [ _ _ r w Q a.m.V.y.^ 4 - 2 4 W *.w.w.=.8 < - : e ' f.                                                                                                          ",
"                                                                                                    ..' w 1 Y ~ ^ ~ W w w w w t W ! ! 8 % #                                                                                                                     ",
"                                                                                                    o.X.w < 3 w W W t t t w w w w w w 3 # #                                                                                                                     ",
"                                                                                                                                                                                                                                                                ",
"                                                                                                                                                                                                                                                                ",
"                                                                                                                                                                                                                                                                ",
"                                                                                                                                                                                                                                                                ",
"                                                                                                                                                                                                                                                                ",
"                                                                                                                                                                                                                                                                ",
"                                                                                                                                                                                                                                                                ",
"                                                                                                                                                                                                                                                                "
};
