/* XPM */
static char *_000[] = {
/* columns rows colors chars-per-pixel */
"128 128 236 2 ",
"   c None",
".  c #955C29",
"X  c #8F5C32",
"o  c #9C612C",
"O  c #9B6434",
"+  c #9D6A3C",
"@  c #986539",
"#  c #8D613C",
"$  c #A36D3D",
"%  c #A66B39",
"&  c #AE723E",
"*  c #9D6D42",
"=  c #9D6F48",
"-  c #9D734B",
";  c #9F7046",
":  c #9E7551",
">  c #9E7958",
",  c #A26E43",
"<  c #A76548",
"1  c #A47244",
"2  c #AA7545",
"3  c #AE7946",
"4  c #A5754B",
"5  c #AA7749",
"6  c #A6794E",
"7  c #AC7A4C",
"8  c #A57A47",
"9  c #B37A45",
"0  c #B37C4B",
"q  c #B97E4A",
"w  c #B57A44",
"e  c #A37752",
"r  c #A57A53",
"t  c #AB7D53",
"y  c #A57D5B",
"u  c #AC7E5A",
"i  c #B27E52",
"p  c #B8785A",
"a  c #BA6A5A",
"s  c #9F7C60",
"d  c #AC7A61",
"f  c #BA7D69",
"g  c #CC5B5B",
"h  c #D35252",
"j  c #D45C5D",
"k  c #DB5B5C",
"l  c #D95656",
"z  c #E25C5C",
"x  c #CA655D",
"c  c #C0785B",
"v  c #D0695E",
"b  c #DD5F64",
"n  c #CC6563",
"m  c #D36464",
"M  c #DA6565",
"N  c #D46B6C",
"B  c #DC6D6D",
"V  c #D26F61",
"C  c #C67A6B",
"Z  c #D0766A",
"A  c #C97E75",
"S  c #DB7373",
"D  c #DD7B7B",
"F  c #D67876",
"G  c #E36364",
"H  c #E66B6D",
"J  c #EC6C6C",
"K  c #E46566",
"L  c #EF6D75",
"P  c #E47373",
"I  c #EB7474",
"U  c #E37A7A",
"Y  c #EB7A7A",
"T  c #F57575",
"R  c #F47C7C",
"E  c #FD7E7E",
"W  c #F3757C",
"Q  c #F36F6F",
"!  c #B5804F",
"~  c #BB814C",
"^  c #AD8255",
"/  c #AD825C",
"(  c #A78452",
")  c #B38254",
"_  c #BB8554",
"`  c #BE8956",
"'  c #B4845A",
"]  c #BA865B",
"[  c #BC8A5C",
"{  c #B68B56",
"}  c #B9915A",
"|  c #AE8561",
" . c #AD896B",
".. c #AE8867",
"X. c #B48A64",
"o. c #BC8C62",
"O. c #B38C6A",
"+. c #BA8567",
"@. c #BB916B",
"#. c #B9906B",
"$. c #B59272",
"%. c #BB9573",
"&. c #B4957B",
"*. c #BD9B7C",
"=. c #BB9778",
"-. c #B08F72",
";. c #C3844B",
":. c #CB884C",
">. c #D48D4D",
",. c #DC924F",
"<. c #C28752",
"1. c #C48A55",
"2. c #CB8D55",
"3. c #C38C5B",
"4. c #C98F5C",
"5. c #C5915D",
"6. c #CD925B",
"7. c #CA975A",
"8. c #D29156",
"9. c #D4955C",
"0. c #D9985A",
"q. c #EC9C53",
"w. c #E49750",
"e. c #F19F53",
"r. c #FBA555",
"t. c #FFAA5C",
"y. c #F8A456",
"u. c #EFA25C",
"i. c #C28E61",
"p. c #C48867",
"a. c #C59263",
"s. c #CB9564",
"d. c #CE9B64",
"f. c #CC9768",
"g. c #CF996A",
"h. c #C59765",
"j. c #D19764",
"k. c #D49B65",
"l. c #DB9D65",
"z. c #D39C6A",
"x. c #DA9E6B",
"c. c #CB8273",
"v. c #D8847B",
"b. c #C19D7D",
"n. c #C79C76",
"m. c #D79776",
"M. c #E29F66",
"N. c #E7817E",
"B. c #FF807F",
"V. c #F1817F",
"C. c #CCA469",
"Z. c #D5A16C",
"A. c #DCA36D",
"S. c #DCA96D",
"D. c #DCA165",
"F. c #DCA571",
"G. c #DCA972",
"H. c #DCB072",
"J. c #E3A46C",
"K. c #E1A96D",
"L. c #EAA96F",
"P. c #E6A466",
"I. c #FFAD64",
"U. c #F8AE6B",
"Y. c #FFB26C",
"T. c #E3A672",
"R. c #E6A973",
"E. c #EBAC75",
"W. c #E5AF79",
"Q. c #EDAF78",
"!. c #F0AF79",
"~. c #F0AE74",
"^. c #ECB274",
"/. c #ECB37A",
"(. c #E6B578",
"). c #FEB573",
"_. c #F3B37A",
"`. c #FAB77C",
"'. c #F3BA7D",
"]. c #FDBA7E",
"[. c #F5B275",
"{. c #E2B06F",
"}. c #F7C37D",
"|. c #D87E86",
" X c #E87E85",
".X c #FE7E82",
"XX c #BE9E81",
"oX c #BFA186",
"OX c #BFA996",
"+X c #DB8283",
"@X c #DD8D8D",
"#X c #D78185",
"$X c #DE9696",
"%X c #DF9183",
"&X c #EA8285",
"*X c #F68080",
"=X c #F38284",
"-X c #F98282",
";X c #FF8080",
":X c #FF8383",
">X c #FD8181",
",X c #FE8585",
"<X c #FE8282",
"1X c #F18289",
"2X c #FD828A",
"3X c #FF8888",
"4X c #E69D8F",
"5X c #C3A285",
"6X c #C3A58B",
"7X c #C5A98F",
"8X c #CAA788",
"9X c #C5AB93",
"0X c #C8AD95",
"qX c #CCB39D",
"wX c #C9B09A",
"eX c #D3B498",
"rX c #F5BC81",
"tX c #FFBC80",
"yX c #F8B885",
"uX c #EFAA81",
"iX c #CDB8A6",
"pX c #D5BEAA",
"aX c #D3BBA5",
"sX c #E4ACAC",
"dX c #E3A4A4",
"fX c #F5C183",
"gX c #FEC285",
"hX c #FFC589",
"jX c #FFC98B",
"kX c #FBC885",
"lX c #DBC7B6",
"zX c #D5C0AC",
"xX c #E2CEBF",
"cX c #DDD1C7",
"vX c #E6D6C9",
"bX c #EEE8E2",
/* pixels */
"                                                                                                                                                                                                                                                                ",
"                                                                                                                                                                                                                                                                ",
"                                                                                                                                                                                                                                                                ",
"                                                                                                                                                                                                                                                                ",
"                                                                                                                                                                                                                                                                ",
"                                                                                                                                                                                                                                                                ",
"                                                                                                                                                                                                                                                                ",
"                                                                                                                                                                                                                                                                ",
"                                                                                                                                                                                                                                                                ",
"                                                                                                                                                                                                                                                                ",
"                                                                                                                                                                                                                                                                ",
"                                                                                                                                                                                                                                                                ",
"                                                                                                                                                                                                                                                                ",
"                                                                                                                                                                                                                                                                ",
"                                                                                                                                                                                                                                                                ",
"                                                                                                                                                                                                                                                                ",
"                                                                                                                                                                                                                                                                ",
"                                                                                                                                                                                                                                                                ",
"                                                                                                                                                                                                                                                                ",
"                                                                                                                                                                                                  g g m F D D                                                   ",
"                                                                                                                                                                                              n n g m B F D D D D D                                             ",
"                                                                                                                                                                                          S N n m M B P U D D D D D D D D                                       ",
"                                                                                                                                                                                      M P H M M M I Y R Y Y U U D D D D D F                                     ",
"                                                                                                                                                                                  x j M I I J H I *X-X>X-XR Y Y U U U U D F N                                   ",
"                                                                                                                                                                                  m M H T R R R -X,X,X,X>X>XE V.R R Y Y U U S B                                 ",
"                                                                                                                                                                                A N K J E >X:X,X,X,X,X,X>X>X>X>X>X-X*X*XY Y Y Y B                               ",
"                                                                                                                                                                            #.+.Z B J T E ,X,X,X,X>X>X>X>X>X>X>X>X>X,X,X-X-XR I B                               ",
"                                                                                                                                                                        O./ u p n B L E >X,X,X,X>XE E >X>X>X>X>X>X,X,X,X-XR Y P B N                             ",
"                                                                                                                                                                    X./ u 4 , < a B W .X,X,X>X>XE E E >X>X>X>X>X>X>X*X*XR Y P B N N N                           ",
"                                                                                                                                                                O.| 6 5 7 7 1 , a Z  X2X2X:X.XE E >X>X>X>X>X>X>XE R Y Y Y P B N N B S M                         ",
"                                                                                                                                                            8X$.t , 2 0 1.5.` ' +.c.+X1X2X:X>XE E E >X>X>X>X>X>XE I P B P P S S S Y Y H                         ",
"                                                                                                                                                            6XO.1 % q s.F.H.H.C.@.+.A D  X.XB.E E E >X>X>X>X>X>XR I B B P Y Y Y Y R R J                         ",
"                                                                                                                                                          oX*.X.0 ;.k./.fXkXfX(.C.o.f C F Y V.E >X>XB.B.>X>X>X>XE R I I R -X*X*X-X>XE J k                       ",
"                                                                                                                                                      X.$.-...' 2.D.'.jXjXjXjXrXS.a.' p C F N.*X>X>XB.E >X>X>X>X>XR R R >X,X,X,X,XE T K M                       ",
"                                                                                                                                                      4 y / / ` D.'.jXjXjXhXhXgX^.d.{ ^ +.c.N.=X:X>XE E E >X>X>X>X>X>X>X>X,X,X,X,XE J G S                       ",
"                                                                                                                                                    . + 4 i ] s.W.fXjXhXtXtXtXtX'.{.C.h.p.c.+X&X2X>X.XE E >X>X>X>X>X>X>X>X>X>X,X,XT G M D $X                    ",
"                                                                                                                                                . o + 1 ! 4.z.R.rXhXhXtXtX].tXgXgX}.'.W.m.v.|. X1X:X:X.X>X>X>X>X>X>X>X>X>X>X>X,X>XQ z M @XsX                    ",
"                                                                                                                                              O $ 2 ) 3.k.K./.rXgXgXtXtXtX].].tXhXjXhXyXuX%X#X|. X1X-X-X>X>XB.B.>X>X>X>X>X>X>X>XE J k m @XsX                    ",
"                                                                                                                                          * $ 2 _ s.x.R.'.rXgXgXtXtXtXtXtXtX].tXgXhXhXhXyX4Xv.v.F +X&X=X-X>XB.B.B.>X>X>X>X>XE T J G k N @XsX                    ",
"                                                                                                                                          1 0 4.x.R./.rXhXjXhXgXtX].tXtXtXtXtXtXtXtXgXhXtXuXm.p.f A v.&X-X>X>X>XB.>X>X>X,X>XR J G k j N @XdX                    ",
"                                                                                                                                      > 4 0 6.K._.rXgXhXhXgXgXtXtX].tXtXtXtXtXtXtXtXtXhXhX'.z.] y d +.v.=X:X:X>X.XE B.>X,X>XT K l h j F @X                      ",
"                                                                                                                                  - : : 6 1.K.].gXgXgXgXtXtXtXtX].].tXtXtXtXtXtXtXtXtXgXkX}.S.} 6 : d c.&X2X2X.X.X.X>X>X:XB.I G h h m +X$X                      ",
"                                                                                                                              + ; 1 4 4 _ z.'.hXhXgXtXtXtX].].tXtXtXtXtXtXtXtXtXtX].].gXgX}.(.7.( - e f D 1X2X:X>X.XB.>X:XE I k h j F $X                        ",
"                                                                                                                            O + 4 7 ! ` g.W.fXhXhXtXtXtXtXtXtXtXtXtXtXtXtXtXtXtXtX].].tXgXkX'.S.[ r e d C v.=X-X:X:X>X>X-XR H k l m +XdX                        ",
"                                                                                                                xXpX5X' * @ + 5 _ 5.k.A./.rXgXgXgXtXtXtXtXtXtXtXtXtXtXtXtXtXtXtXtX].].tXgXhXgX/.k.[ / / ' p.v.N.-X2X2X:XR I K k j N @XsX                        ",
"                                                                                                            lXpX0X=.' 4 * 1 i 4.x.R./.rXgXtXtXtXtXtXtXtXtXtXtXtXtXtXtXtXtXtXtXtXtX].].tXtXgXtXrXR.Z.h.[ ^ / f v.&X2X2X.XW H b j m D $XsX                        ",
"                                                                                                        lXpX9X=.| 4 , 1 0 4.x.R._.rXgXhXhXgXtXtXtXtXtXtXtXtXtXtXtXtXtXtXtXtXtXtXtXtXtXtXtXtXtXtXrX/.R.d.{ ( u f v.1X2X.XL b j m F @XdX                          ",
"                                                                                                        6X*...r 1 , 2 _ j.R.'.rXhXhXgXgXgXtXtXtXtXtXtXtXtXtXtXtXtXtXtXtXtXtXtXtXtXtXtXtXtX].].tXrXtX'.S.} ( r d A D Y I K j j N +X                              ",
"                                                                                                      6 r e 4 2 0 _ 6.A./.rXhXhXhXgXgXtXtXtXtXtXtXtXtXtXtXtXtXtXtXtXtXtXtXtXtXtXtXtXtXgXtX].`.'.'.tX`.R.s.' t / +.C Z V v x n F                                 ",
"                                                                                                  O O O + 1 0 ` d.S./.rXhXhXhXgXgXtXtXtX].].tXtXtXtXtXtXtXtXtXtXtXtXtXtXtXtXtXtXtXtXtXgXtX`._.Q.Q._._.E.x.a.[ [ [ [ c p c x                                     ",
"                                                                                              * + @ + 1 0 ` s.A./.fXhXhXhXhXgXtXtXtXtXtX].].tXtXtXtXtXtXtXtXtXtXtXtXtXtXtXtXtXtXtXtXtXtX`.`.Q.R.T.E.E.E.T.A.A.Z.d.5.` ' i p                                     ",
"                                                                                            - * , 5 ) 3.z.T./.rXhXjXhXgXtXtXtXtXtXtXtXtXtXtXtXtXtXtXtXtXtXtXtXtXtXtXtXtXtXtXtXtXtXtX`.`.`.~.R.T.T.T.R.Q._._._.^.K.k.[ ) ^                                       ",
"                                                                                      - - - , 1 0 3.z.R./.rXgXhXhXhXgXtXtXtXtXtXtXtXtXtXtXtXtXtXtXtXtXtXtXtXtXtXtXtXtXtXtXtXtXtXtXrX'._.Q.E.R.T.R.R.E.!.`.tX`.`.E.k.` 7 8                                       ",
"                                                                                    * * * 4 7 _ s.A./.rXgXgXhXgXtXtXtXtX].].tXtXtXtXtXtXtXtXtXtXtXtXtXtXtXtXtXtXtXtXtXtXtXtXtXtXtX`./.E.T.R.R.E.Q.Q.!.[._.[.Q.T.l.4.0 2                                         ",
"                                                                                * * * 1 5 _ s.A./.'.gXgXgXgXgXtXtX].tXtX].].tXtXtXtXtXtXtXtXtXtXtXtXtXtXtXtXtXtXtXtXtXtXtXtXtXtX`.`.E.T.T.R.E.Q._.!._.Q.T.x.j.4.` i 7 5                                         ",
"                                                                            + , 1 1 7 _ 5.Z.W.rXgXgXgXgXtXtXtXtXtXtXtXtXtXtXtXtXtXtXtXtXtXtXtXtXtXtXtXtXtXtXtXtXtXtXtXtXtXtX`.`.`.^.E.T.T.E.Q._._.Q.R.A.s.3.) 7 6 u ' '                                         ",
"                                                            bXbXcXOXs # X @ , 5 i ` s.A.W.rXkXhXhXgXtXtXtX].].].tXtXtXtXtXtXtXtXtXtXtXtXtXtXtXtXtXtXtXtXtXtXtXtXtXtXtXtX`.'._.Q.Q.E.E.R.E.E.Q.Q.R.A.s.3._ t t t / O.%.                                          ",
"                                                            lXlXqX&.: # @ 1 i 3.j.A.W.'.hXjXjXhXgXtXtX].].].].].tXtXtXtXtXtXtXtXtXtXtXtXtXtXtXtXtXtXtXtXtXtXtXtXtXtX`.`._.Q.E.R.R.E.Q.Q.E.E.T.F.z.4.0 2 t / / X.$.b.                                            ",
"                                                          O.*.XX$./ 4 , 5 ` j.F.Q.'.rXhXhXhXgXgXtX].].].].tXtXtXtXtXtXtXtXtXtXtXtXtXtXtXtXtXtXtXtXtXtXtXtXtXtXtX`.`._./.E.R.T.T.R.Q._._.R.A.z.h.o.7 O O u O.*.*.                                                ",
"                                                          6 ' [ [ _ _ ` s.A./.rXtXgXhXhXgXtXtXtX].].].tXtXtXtXtXtXtXtXtXtXtXtXtXtXtXtXtXtXtXtXtXtXtXtXtXtXtXrX`.'._.E.R.T.T.T.R.Q._.`._.T.z.[ ' u 1 O $ X.5X                                                    ",
"                                                        3 0 ~ 2.k.S.S.S./.rXgXhXgXgXgXgXtX].tXtX].].tXtXtXtXtXtXtXtXtXtXtXtXtXtXtXtXtXtXtXtXtXtXtXtXtXtX`.`.`._.Q.E.R.T.T.T.E.Q._.[.[.Q.A.i.t 4 4 4 1 t %.8X                                                    ",
"                                                    * 5 _ 2.0.P.^.'.fXfXgXgXgXgXgXtXtX].].].tXtXtXtXtXtXtXtXtXtXtXtXtXtXtXtXtXtXtXtXtXtXtXtXtXtXtXtXrX'._._.Q.E.R.T.T.R.T.R.Q._._._.E.F.g.] 4 1 r ' X.%.5X                                                      ",
"                                                  * 1 ) s.J.~.[.].hXjXhXhXgXgXtXtXtX].].].].tXtXtXtXtXtXtXtXtXtXtXtXtXtXtXtXtXtXtXtXtXtXtXtXtXtX`.'._.Q.E.R.R.T.T.T.R.E.E.E.E.E.R.F.z.f.o.) 1 1 ^ #.b.                                                          ",
"                                            2 2 7 7 ) 5.K.`.].].gXgXhXgXtXtXtXtXtXtX].].tXtXtXtXtXtXtXtXtXtXtXtXtXtXtXtXtXtXtXtXtXtXtXtXtXtXrX`.`._.E.E.R.T.T.T.T.R.E.Q.Q.E.T.F.z.a.[ ' ) 5 $ 1 '                                                               ",
"                                          2 2 q <.6.j.T.'.].].].tXtXtXtXtXtX].tXtXtXtXtXtXtXtXtXtXtXtXtXtXtXtXtXtXtXtXtXtXtXtXtX`.`.`.rXrX`.'._.E.E.R.T.T.T.R.R.R.E.Q._._.Q.F.s.[ ) t 4 1 $ % $                                                                 ",
"                                        1 2 q :.0.P.Q.'.tX].].].].tXtXtXtXtXtXtXtXtXtXtXtXtXtXtXtXtXtXtXtXtXtXtXtXtXgXgXtXtXtX`.`._._._._._.Q.E.R.T.T.T.T.R.E.E.Q.Q._.'.yXQ.x.3.7 1 1 1 1 1 % %                                                                 ",
"                                      1 2 q :.,.u.U.`.tXtXtX].].tXtXtX].tXtXtXtXtXtXtXtXtXtXtXtXtXtXtXtXtXtXtX].].rXtXtXrX`.'._.Q.E.R.E.E.E.E.T.T.T.T.T.R.E.E.Q.!.Q.Q.!._.Q.l.;.2 , 4 ^ ' i                                                                     ",
"                                    1 3 q :.,.q.t.Y.`.tXtXtX].].tXtXtXtXtXtXtXtXtXtXtXtXtXtXtXtXtXtXtXtXtXtXtX`.`.'.'.`.'._.Q.E.R.T.T.T.R.R.R.T.T.T.R.E.Q./._._._.E.T.A.J.M.0.;.9 6 X.b.5X@.                                                                    ",
"                                  1 3 ;.>.w.y.r.I.Y.`.tXtXtXtXtXtXtXtXtXtXtXtXtXtXtXtXtXtXtXtXtXtXtXtXtXtXtX`.`.Q.E.Q.Q.Q.E.E.R.T.T.T.T.R.R.T.R.R.R.Q.Q._._._./.R.x.s.1.1.2.2.4.[ %.7XpXlX                                                                      ",
"                                1 2 q >.q.y.t.t.I.).].tXtXtXtXtXtXtXtXtXtXtXtXtXtXtXtXtXtXtXtXtXtXtXtXtXtXtX`._.R.T.T.R.R.R.R.T.R.R.R.R.R.R.R.E.Q._.[._._.Q.R.A.j.<.0 2 3 _ a.n.8XwXzXvX                                                                        ",
"                              1 1 3 ;.w.y.t.t.I.Y.).].tXtXtXtXtXtXtXtXtXtXtXtXtXtXtXtXtXtXtXtXtXtXtXtXrX`.`.`.Q.T.T.T.T.R.R.R.R.R.R.R.R.R.R.E.Q._.'.'._.R.A.j.1.0 2 1 4 u O.5XeXpX                                                                              ",
"                            2 1 1 0 >.q.r.t.t.I.).].tXtXtXtXtXtXtXtXtXtXtXtXtXtXtXtXtXtXtXtXtXtXtXtXtX`.'._.^.E.T.T.T.T.R.R.R.R.E.E.E.E.Q.Q.Q._._._.Q.J.j.1.0 2 1 4 u O.*.7XiX                                                                                  ",
"                            2 1 2 ~ ,.y.r.t.I.Y.).].tXtXtXtXtXtXtXtXtXtXtXtXtXtXtXtXtXtXtXtXtXtXtXtX].`.Q.R.R.R.R.T.R.R.R.E.E.E.E.E.Q.Q._._.Q.E.R.A.j.1.0 2 $ 1 / $.5XqXzX                                                                                      ",
"                            2 1 2 ;.w.r.r.t.I.).`.].tXtXtXtXtXtXtXtXtXtXtXtXtXtXtXtXtXtXtXtXtXtXtXtX`._.R.T.T.R.E.E.E.E.E.E.Q.Q.Q.Q._._._.E.R.x.s.1.q 5 1 4 t O.6XaXlXvX                                                                                        ",
"                          2 2 2 0 :.q.r.t.I.Y.].].tXtXtXtXtXtXtXtXtXtXtXtXtXtXtXtXtXtXtXtXtXtX].`.'.`.Q.R.T.T.E.Q./.Q.E.E.Q._._._._._.Q.R.A.g.3.0 2 1 4 / O.5XqXlXvX                                                                                            ",
"                          2 0 q ;.,.y.t.t.I.).].tXtXtXtXtXtXtXtXtXtXtXtXtXtXtXtXtXtXtXtXtXtX`.`._.Q.Q.Q.E.E.R.E.Q._._.Q.E.E.Q._._.Q.R.A.f.3.' 7 $ + 4 | XXqXlXvX                                                                                                ",
"                          5 q :.,.q.r.t.I.Y.].tXtXtXtXtXtXtXtXtXtXtXtXtXtXtXtXtXtXtXtXtXtXtX`._.Q.E.E.Q.Q.E.R.R.R.E.Q.E.R.K.F.T.R.K.j.3.) 7 4 , + + u XXpX                                                                                                      ",
"                        2 0 ;.>.q.y.r.t.Y.).].tXtXtXtXtXtXtXtXtXtXtXtXtXtXtXtXtXtXtXtXtXtXtX`.`.Q.E.E.E.Q.E.J.x.z.x.A.A.z.s.a.s.f.s.] t 1 1 , $ $                                                                                                               ",
"                        2 0 ;.,.e.r.r.t.Y.`.tXtXtXtXtXtXtXtXtXtXtXtXtXtXtXtXtXtXtXtXtXtXtXtXtX`.`.Q.R.T.T.A.z.a.[ 3.a.a.[ ' ) ) ) ) ) t 4 ,                                                                                                                     ",
"                        2 9 ;.,.u.t.t.I.).].tXtXtXtXtXtXtXtXtXtXtXtXtXtXtXtXtXtXtXtXtXtXtXtXtXtX`._.T.x.f.s.a.i.] ' ' ' / u t 7 5 u X.X./                                                                                                                       ",
"                      2 2 2 q 8.P.Y.Y.).`.tXtXtXtXtXtXtXtXtXtXtXtXtXtXtXtXtXtXtXtXtXtXtXtXtXtXtX`.Q.A.a.[ [ a.f.a.[ ' ' ' ] ` _ 0 ' =.b.                                                                                                                        ",
"                        5 2 9 1.P.[.}.].tXtXtXtXtXtXtXtXtXtXtXtXtXtXtXtXtXtXtXtXtXtXtXtXtXtXtX].`.E.A.a.] [ g.A.A.z.a.i.a.g.k.9.1.o.b.6X                                                                                                                        ",
"                        ) t 2 q 0.^.gXhXtXtX].tXtXtXtXtXtXtXtXtXtXtXtXtXtXtXtXtXtXtX].tXtXtXtX`.[.Q.T.z.s.f.A.E._.Q.T.A.A.R.R.J.4.O.=.*.                                                                                                                        ",
"                        O.X.6 2 2.R.fXhXtXtX].tXtXtXtXtXtXtXtXtXtXtXtXtXtXtXtXtXtXtXtXtXtXtXtXtX'._.Q.R.T.T.R.Q.'.[.!.Q.Q._.Q.A.4.' ..O.                                                                                                                        ",
"                          *./ 4 _ A.rXhXgXtXtXtXtXtXtXtXtXtXtXtXtXtXtXtXtXtXtXtXtXtXtXtXtXtXgXtXrX`.`.'.[.!.Q.Q._._.Q.!._._.E.x.] t r /                                                                                                                         ",
"                          7X$.u ] x.'.hXgXtXtXtXtXtXtXtXtXtXtXtXtXtXtXtXtXtXtXtXtXtXtX`.tXtXgXhXgXgXtXtX].`.[._.Q.E.E.Q.Q.Q.R.z.] 4 4 u                                                                                                                         ",
"                          qXXXX.` k.'.jXgXtX].tXtXtXtXtXtXtXtXtXtXtXtXtXtXtXtXtXgXtX`._._.'.tXgXgXgXgXtXtXtX`.'._.Q.E.E.E.Q.Q.T.s.i 4 r X.                                                                                                                      ",
"                          iXoXX._ 0.'.jXhXtX].tXtXtXtXtXtXtXtXtXtXtXtXtXtXtXtXtXgXgX'.R.z.x.T._.tXgXtXtXtXtXtXtX`._.E.T.R.Q._.Q.x.3.7 6 ' %.                                                                                                                    ",
"                          qX*.) w 2.^.hXhXtX].tXtXtXtXtXtXtXtXtXtXtXtXtXtXtXtXtXgXtX'.Z.[ ' [ x._.tXtXtXtXtXtXtX`._.R.T.T.E._._.R.s.! 4 u =.                                                                                                                    ",
"                            %.7 2 1.R.gXgXtXtXtXtXtXtXtXtXtXtXtXtXtXtXtXtXtXtXtXtXtX`.F.[ e e o.T.`.gXgXtXtXtXtX'.Q.R.T.T.E._.`.Q.l._ 2 5 %.                                                                                                                    ",
"                            =.u 5 ` R.rXgXtXtXtXtXtXtXtXtXtXtXtXtXtXtXtXtXtXtXtXtXtXrX/.g.' : u f./.gXgXgXtXtX].`.Q.R.T.T.E.Q.`._.J.2.2 4 O.                                                                                                                    ",
"                            XX| t ` R.gXgXtXtXtXtXtXtXtXtXtXtXtXtXtXtXtXtXtXtXtXtXgXgXrXW.a.r : [ F.'.gXgXtX].].`._.E.T.T.R.E._._.K.4.0 t $.                                                                                                                    ",
"                              O.t 1.R.hXhXgXtX].].tXtXtXtXtXtXtXtXtXtXtXtXtXtX].].tXhXhX'.x.u - u s.Q.tXgXtXtXtX].`.Q.R.T.R.R.Q.Q.K.6.' / %.                                                                                                                    ",
"                              X.7 <.L.hXhXgXtX].].tXtXtXtXtXtXtXtXtXtXtXtXtXtX].].tXgXhXgXG.[ e r a.W.gXhXgXtXtXtX`._.R.T.R.R.Q.E.K.f.' / O.5X                                                                                                                  ",
"                              / 5 ~ J.tXhXgXtXtXtXtXtXtXtXtXtXtXtXtXtXtXtXtXtXtXtXtXtXhXhX/.f.u u a.W.hXjXgXtXtXtXtX'.Q.R.T.R.E.E.T.j._ 2 u b.0X                                                                                                                ",
"                              t 4 0 k.'.hXjXhXtXtXtXtXtXtXtXtXtXtXtXtXtXtXtXtXtXtXtXtXgXhXrXF.a.[ g./.hXhXgXtXtXtXtX`._.R.T.T.E.Q.E.x.<.& 7 *.qX                                                                                                                ",
"                              6 4 7 4.T.rXjXjXgXtXtXtXtXtXtXtXtXtXtXtXtXtXtXtXtXtXtXtXtXgXrX/.F.f.z.W.rXgXtXtXtXtXtXtX'.Q.R.T.E.Q.~.J.2.0 X.5XqX                                                                                                                ",
"                                4 4 i 6.R.rXkXhXgXtX].].].tXtXtXtXtXtXtXtXtXtXtXtXtXtXtXtXgXrXW.z.s.Z./.rXtXtXtXtXtXtX`._.R.R.Q._.~.M.6.[ %.9X                                                                                                                  ",
"                                6 4 5 0 4.Z./.yXhXtXtX].].tXtXtXtXtXtXtXtXtXtXtXtXtXtXtXtXhXgXW.s.[ a.F.'.gXtXtXtXtXtXtX`.Q.E.Q._.L.0.2.@.oX9X                                                                                                                  ",
"                                  1 2 2 0 ` z./.tXhXhXgXtXtXtXtXtXtXtXtXtXtXtXtXtXtXtXtXgXhXrXF.o.) [ Z.'.hXgXtX].tXgXtX`._.E.Q.[.J.2.` %.7X                                                                                                                    ",
"                                      t u t _ 0./.jXjXjXhXgXtXtXtXtXtXtXtXtXtXtXtX].].gXhXgX/.z.] ' a.G.rXhXgXtXtXtXgXtX`._.E.E.E.l.1.] *.0X                                                                                                                    ",
"                                        X.u 3 ;.0.^.'.fXkXhXtXtX].].].].tXtXtXtXtX].].gXhXrXR.a.' ] z./.gXgXgXtX].tXtXrX`._.E.E.L.9.<.o.5XqX                                                                                                                    ",
"                                        =.X.7 w ;.8.0.A./.rXgXtX].].].].tXtXtXtXtXtXtXgXhXrXA.[ ' i.F.rXgXgXtXtX].`.`.`._.Q.Q.R.M.6.` #.7XiX                                                                                                                    ",
"                                        6X*.#.o.` ` <.5.Z./.rXgXgXtXtXtXtXtXtXtXtXtXtXgXgX/.z.] ' s.Q.gXgXtXtXtX`.`._.Q.E.Q./.L.0.1.o.*.9X                                                                                                                      ",
"                                          0X7X6X5X*.O.' ` k./.hXjXhXhXtXtXtXtXtXtXtXgXhXrXW.s.' [ z./.hXgXtXtXtX`._.E.T.T.Q._.L.8.<.@.5X0X                                                                                                                      ",
"                                              pXiX9X&./ 5 <.A.'.hXhXjXhXgXtX].].].tXgXhX'.F.i.' i.F.rXhXgXtXtX`.`.Q.T.T.T.Q._.J.2.` %.7X                                                                                                                        ",
"                                                    &.y , 9 6.K.^.'.gXgXgXtX].].].gXhXgX/.z.] ' s.W.rXhXgXtXtX`._.E.T.T.R.!.Q.l.<.] *.0X                                                                                                                        ",
"                                                      y 1 7 1.s.k.D.R.'.tXgXtX].].gXjXkXW.s.' [ z./.gXgXgXtXtX`.Q.R.T.E.Q._.R.9._ X.oXwX                                                                                                                        ",
"                                                        r ^ X.o.[ ` s.A.'.gXgXgXtXhXjXfXG.i.' i.F.rXgXgXgXtX`.`.Q.T.T.Q.'.[.P.2.` @.oXwX                                                                                                                        ",
"                                                          | O.O.| u i a.R.gXjXjXgXgXkX(.Z.[ ] s.Q.tXgXtXgXtX`.[.Q.R.R._.rX[.0.2.[ %.7X                                                                                                                          ",
"                                                               . .y e ) x.'.jXjXgX'.W.Z.a.] [ z.'.gXtXrXtXtX`.'.Q.E.R._._.L.8.1.o.XX7X                                                                                                                          ",
"                                                                &...r 7 5.R.'.'./.A.s.[ ' ' a.T.rXtXrX'.`.tXtX'./.E.T.K.l.8.<.3.n.7X                                                                                                                            ",
"                                                                  %.u 1 ! s.A.K.k.3.i 4 4 ' f.E.rXtX_.Q._.`.`.'.Q.T.x.6.~ 3 0 o.6XwX                                                                                                                            ",
"                                                                    ' 1 2 ) 3.4.` i 4 = 4 ) j.R.`.'.E.T.K.T.E.L.x.s.1.3 o o                                                                                                                                     ",
"                                                                          6 t i i t 4 4 6 ) 6.J.Q.E.A.f.s.s.9.6.1._ 7 O .                                                                                                                                       ",
"                                                                                t t u t t ) ` s.l.k.4._ ' ' _ ! 0 t u 6 ,                                                                                                                                       ",
"                                                                                      ^ t t ) ] 3._ 0 5 e r u t 6 / %.*.                                                                                                                                        ",
"                                                                                            u t 7 2 $ * - y / / X.=.0X                                                                                                                                          ",
"                                                                                                  ,           #.b.                                                                                                                                              ",
"                                                                                                                                                                                                                                                                ",
"                                                                                                                                                                                                                                                                ",
"                                                                                                                                                                                                                                                                ",
"                                                                                                                                                                                                                                                                ",
"                                                                                                                                                                                                                                                                ",
"                                                                                                                                                                                                                                                                ",
"                                                                                                                                                                                                                                                                ",
"                                                                                                                                                                                                                                                                ",
"                                                                                                                                                                                                                                                                "
};
